MODULE CONVERTED
PERS jointtarget jt0:= [[-92.4278, -44.3477, 23.0081, -55.6876, 60.7508, -103.887], [105.882, 9E+9, 9E+9, 9E+9, 9E+9, 9E+9]];
PERS jointtarget jt1:= [[-92.4278, -44.3477, 23.0081, -55.6876, 60.7508, -103.887], [105.882, 9E+9, 9E+9, 9E+9, 9E+9, 9E+9]];
PERS jointtarget jt2:= [[-92.4278, -44.3477, 23.0081, -55.6876, 60.7508, -103.887], [105.882, 9E+9, 9E+9, 9E+9, 9E+9, 9E+9]];
PERS jointtarget jt3:= [[-92.4278, -44.3477, 23.0081, -55.6876, 60.7508, -103.887], [105.882, 9E+9, 9E+9, 9E+9, 9E+9, 9E+9]];
PERS jointtarget jt4:= [[-92.4278, -44.3477, 23.0081, -55.6876, 60.7508, -103.887], [105.882, 9E+9, 9E+9, 9E+9, 9E+9, 9E+9]];
PERS jointtarget jt5:= [[-92.4278, -44.3477, 23.0081, -55.6876, 60.7508, -103.887], [105.882, 9E+9, 9E+9, 9E+9, 9E+9, 9E+9]];
PERS jointtarget jt6:= [[-91.9583, -44.3173, 23.8261, -56.7178, 59.9784, -103.26], [105.48, 9E+9, 9E+9, 9E+9, 9E+9, 9E+9]];
PERS jointtarget jt7:= [[-94.3494, -44.3274, 22.0375, -57.0111, 63.651, -101.958], [108.655, 9E+9, 9E+9, 9E+9, 9E+9, 9E+9]];
PERS jointtarget jt8:= [[-99.6105, -44.6606, 18.0745, -57.6303, 71.3454, -99.2289], [115.305, 9E+9, 9E+9, 9E+9, 9E+9, 9E+9]];
PERS jointtarget jt9:= [[-92.0303, -44.3386, 23.7383, -56.7331, 60.1554, -102.653], [105.571, 9E+9, 9E+9, 9E+9, 9E+9, 9E+9]];
PERS jointtarget jt10:= [[-91.7448, -44.3035, 24.2862, -57.3604, 59.7002, -103.28], [105.318, 9E+9, 9E+9, 9E+9, 9E+9, 9E+9]];
PERS jointtarget jt11:= [[-92.855, -44.3148, 23.479, -57.527, 61.4187, -102.733], [106.822, 9E+9, 9E+9, 9E+9, 9E+9, 9E+9]];
PERS jointtarget jt12:= [[-98.2879, -44.6408, 19.5131, -58.3191, 69.4894, -100.17], [113.849, 9E+9, 9E+9, 9E+9, 9E+9, 9E+9]];
PERS jointtarget jt13:= [[-98.5825, -44.6893, 19.3289, -58.3829, 69.8904, -100.025], [114.264, 9E+9, 9E+9, 9E+9, 9E+9, 9E+9]];
PERS jointtarget jt14:= [[-99.0621, -44.8211, 20.1995, -60.5839, 70.2111, -99.1314], [115.727, 9E+9, 9E+9, 9E+9, 9E+9, 9E+9]];
PERS jointtarget jt15:= [[-98.7356, -44.7615, 20.3639, -60.3377, 69.7019, -99.3333], [115.181, 9E+9, 9E+9, 9E+9, 9E+9, 9E+9]];
PERS jointtarget jt16:= [[-93.9609, -44.4235, 22.3935, -56.4741, 62.5667, -102.39], [107.662, 9E+9, 9E+9, 9E+9, 9E+9, 9E+9]];
PERS jointtarget jt17:= [[-93.3043, -44.3793, 22.8703, -56.3626, 61.5264, -102.771], [106.768, 9E+9, 9E+9, 9E+9, 9E+9, 9E+9]];
PERS jointtarget jt18:= [[-91.0364, -44.2772, 24.8043, -56.5344, 57.6868, -104.066], [103.971, 9E+9, 9E+9, 9E+9, 9E+9, 9E+9]];
PERS jointtarget jt19:= [[-92.1541, -44.3292, 23.4426, -55.5412, 59.6505, -103.384], [105.259, 9E+9, 9E+9, 9E+9, 9E+9, 9E+9]];
PERS jointtarget jt20:= [[-93.7095, -44.4104, 22.4892, -56.3615, 62.2972, -101.673], [107.207, 9E+9, 9E+9, 9E+9, 9E+9, 9E+9]];
PERS jointtarget jt21:= [[-93.416, -44.4211, 23.1867, -57.4201, 61.9011, -101.562], [107.065, 9E+9, 9E+9, 9E+9, 9E+9, 9E+9]];
PERS jointtarget jt22:= [[-101.282, -44.7333, 17.9304, -59.4904, 73.3576, -97.7937], [117.406, 9E+9, 9E+9, 9E+9, 9E+9, 9E+9]];
PERS jointtarget jt23:= [[-93.9427, -44.2986, 22.6775, -57.2445, 62.5101, -101.937], [107.974, 9E+9, 9E+9, 9E+9, 9E+9, 9E+9]];
PERS jointtarget jt24:= [[-91.6074, -44.3263, 24.4398, -57.0458, 58.8607, -103.2], [104.941, 9E+9, 9E+9, 9E+9, 9E+9, 9E+9]];
PERS jointtarget jt25:= [[-91.2129, -44.3191, 24.9775, -57.611, 58.2072, -103.272], [104.589, 9E+9, 9E+9, 9E+9, 9E+9, 9E+9]];
PERS jointtarget jt26:= [[-91.2474, -44.3195, 25.1141, -57.9886, 58.2626, -103.113], [104.786, 9E+9, 9E+9, 9E+9, 9E+9, 9E+9]];
PERS jointtarget jt27:= [[-93.0982, -44.3546, 24.0578, -58.9341, 61.1835, -101.605], [107.533, 9E+9, 9E+9, 9E+9, 9E+9, 9E+9]];
PERS jointtarget jt28:= [[-97.0093, -44.6111, 21.284, -59.682, 67.2282, -98.769], [112.56, 9E+9, 9E+9, 9E+9, 9E+9, 9E+9]];
PERS jointtarget jt29:= [[-91.9573, -44.3504, 24.2865, -57.4034, 59.2942, -102.762], [105.36, 9E+9, 9E+9, 9E+9, 9E+9, 9E+9]];
PERS jointtarget jt30:= [[-91.638, -44.3373, 24.6989, -57.7637, 58.9373, -102.807], [105.023, 9E+9, 9E+9, 9E+9, 9E+9, 9E+9]];
PERS jointtarget jt31:= [[-92.5558, -44.3107, 23.7804, -56.9893, 60.2935, -102.989], [106.152, 9E+9, 9E+9, 9E+9, 9E+9, 9E+9]];
PERS jointtarget jt32:= [[-100.452, -44.7606, 18.8272, -59.6292, 72.1108, -99.2192], [116.87, 9E+9, 9E+9, 9E+9, 9E+9, 9E+9]];
PERS jointtarget jt33:= [[-100.958, -44.8375, 18.5294, -59.7661, 72.7465, -99.0083], [117.5, 9E+9, 9E+9, 9E+9, 9E+9, 9E+9]];
PERS jointtarget jt34:= [[-92.1701, -44.3762, 24.3998, -57.4697, 59.9004, -102.939], [105.995, 9E+9, 9E+9, 9E+9, 9E+9, 9E+9]];
PERS jointtarget jt35:= [[-96.582, -44.5699, 20.561, -57.0708, 67.024, -101.133], [111.824, 9E+9, 9E+9, 9E+9, 9E+9, 9E+9]];
PERS jointtarget jt36:= [[-98.4301, -44.6554, 18.9492, -56.8932, 70.2435, -100.307], [114.252, 9E+9, 9E+9, 9E+9, 9E+9, 9E+9]];
PERS jointtarget jt37:= [[-91.431, -44.3258, 23.9829, -56.2302, 61.4793, -102.214], [105.926, 9E+9, 9E+9, 9E+9, 9E+9, 9E+9]];
PERS jointtarget jt38:= [[-95.0347, -44.3214, 21.5042, -57.0098, 67.4582, -100.074], [111.092, 9E+9, 9E+9, 9E+9, 9E+9, 9E+9]];
PERS jointtarget jt39:= [[-101.2, -44.8692, 17.3577, -58.1816, 76.6684, -96.3098], [119.256, 9E+9, 9E+9, 9E+9, 9E+9, 9E+9]];
PERS jointtarget jt40:= [[-92.813, -44.1466, 23.4974, -57.4217, 64.9133, -99.147], [109.091, 9E+9, 9E+9, 9E+9, 9E+9, 9E+9]];
PERS jointtarget jt41:= [[-89.1255, -44.239, 26.0715, -56.9299, 59.1757, -101.437], [104.123, 9E+9, 9E+9, 9E+9, 9E+9, 9E+9]];
PERS jointtarget jt42:= [[-88.7943, -44.2829, 26.3472, -57.0349, 58.6179, -101.492], [103.687, 9E+9, 9E+9, 9E+9, 9E+9, 9E+9]];
PERS jointtarget jt43:= [[-94.0185, -44.5429, 23.3209, -59.7673, 66.1174, -96.7287], [110.826, 9E+9, 9E+9, 9E+9, 9E+9, 9E+9]];
PERS jointtarget jt44:= [[-90.8084, -44.3524, 25.3788, -57.6796, 59.7644, -100.07], [105.407, 9E+9, 9E+9, 9E+9, 9E+9, 9E+9]];
PERS jointtarget jt45:= [[-92.731, -44.4384, 24.274, -58.8856, 61.1141, -98.612], [107.085, 9E+9, 9E+9, 9E+9, 9E+9, 9E+9]];
PERS jointtarget jt46:= [[-91.4092, -44.3169, 25.1627, -58.5251, 58.1909, -101.942], [105.111, 9E+9, 9E+9, 9E+9, 9E+9, 9E+9]];
PERS jointtarget jt47:= [[-100.159, -44.7788, 19.1711, -60.8535, 71.276, -96.7136], [116.602, 9E+9, 9E+9, 9E+9, 9E+9, 9E+9]];
PERS jointtarget jt48:= [[-93.0075, -44.3526, 22.9113, -56.6101, 60.4202, -102.616], [106.312, 9E+9, 9E+9, 9E+9, 9E+9, 9E+9]];
PERS jointtarget jt49:= [[-98.9099, -44.5421, 18.685, -57.448, 69.0361, -101.038], [113.87, 9E+9, 9E+9, 9E+9, 9E+9, 9E+9]];
PERS jointtarget jt50:= [[-99.3371, -44.5607, 18.0638, -56.8166, 69.6266, -101.358], [114.137, 9E+9, 9E+9, 9E+9, 9E+9, 9E+9]];
PERS jointtarget jt51:= [[-96.7093, -44.3813, 19.029, -54.0987, 65.8748, -103.521], [110.089, 9E+9, 9E+9, 9E+9, 9E+9, 9E+9]];
PERS jointtarget jt52:= [[-94.685, -44.3125, 19.8007, -51.9395, 62.9434, -105.234], [106.844, 9E+9, 9E+9, 9E+9, 9E+9, 9E+9]];
PERS jointtarget jt53:= [[-98.5622, -44.378, 17.0979, -53.1255, 68.4099, -102.658], [111.919, 9E+9, 9E+9, 9E+9, 9E+9, 9E+9]];
PERS jointtarget jt54:= [[-99.6192, -44.4481, 16.3763, -53.4488, 69.8425, -101.976], [113.283, 9E+9, 9E+9, 9E+9, 9E+9, 9E+9]];
PERS jointtarget jt55:= [[-100.072, -44.4887, 16.0862, -53.5787, 70.419, -101.702], [113.86, 9E+9, 9E+9, 9E+9, 9E+9, 9E+9]];
PERS jointtarget jt56:= [[-94.4616, -44.2577, 19.533, -49.4447, 61.8199, -106.459], [105.805, 9E+9, 9E+9, 9E+9, 9E+9, 9E+9]];
PERS jointtarget jt57:= [[-93.9059, -44.2409, 19.7007, -48.9807, 61.4643, -107.631], [105.315, 9E+9, 9E+9, 9E+9, 9E+9, 9E+9]];
PERS jointtarget jt58:= [[-94.842, -44.2713, 19.7429, -51.3245, 62.9218, -105.849], [107.047, 9E+9, 9E+9, 9E+9, 9E+9, 9E+9]];
PERS jointtarget jt59:= [[-101.179, -44.3108, 14.8828, -52.5368, 71.9828, -103.135], [115.221, 9E+9, 9E+9, 9E+9, 9E+9, 9E+9]];
PERS jointtarget jt60:= [[-99.2284, -44.1917, 16.2613, -51.859, 69.165, -104.482], [112.639, 9E+9, 9E+9, 9E+9, 9E+9, 9E+9]];
PERS jointtarget jt61:= [[-94.219, -44.2054, 19.8411, -49.9598, 61.4696, -108.153], [105.712, 9E+9, 9E+9, 9E+9, 9E+9, 9E+9]];
PERS jointtarget jt62:= [[-95.3362, -44.143, 18.9606, -50.2433, 63.1458, -107.332], [107.186, 9E+9, 9E+9, 9E+9, 9E+9, 9E+9]];
PERS jointtarget jt63:= [[-103.471, -44.3425, 12.6432, -52.1953, 74.595, -101.741], [117.41, 9E+9, 9E+9, 9E+9, 9E+9, 9E+9]];
PERS jointtarget jt64:= [[-104.243, -44.4288, 12.0529, -52.365, 75.5997, -101.245], [118.341, 9E+9, 9E+9, 9E+9, 9E+9, 9E+9]];
PERS jointtarget jt65:= [[-103.215, -44.3302, 12.8758, -52.2332, 74.2095, -101.761], [117.102, 9E+9, 9E+9, 9E+9, 9E+9, 9E+9]];
PERS jointtarget jt66:= [[-97.04, -44.16, 17.8109, -51.2184, 65.3373, -105.275], [109.388, 9E+9, 9E+9, 9E+9, 9E+9, 9E+9]];
PERS jointtarget jt67:= [[-95.6719, -44.2018, 18.9044, -50.9884, 63.2841, -106.092], [107.61, 9E+9, 9E+9, 9E+9, 9E+9, 9E+9]];
PERS jointtarget jt68:= [[-94.511, -44.2653, 19.8399, -50.789, 61.494, -106.807], [106.063, 9E+9, 9E+9, 9E+9, 9E+9, 9E+9]];
PERS jointtarget jt69:= [[-94.3818, -44.26, 19.7662, -50.2074, 61.0585, -107.332], [105.683, 9E+9, 9E+9, 9E+9, 9E+9, 9E+9]];
PERS jointtarget jt70:= [[-94.5399, -44.2624, 19.6678, -50.0588, 61.2448, -107.641], [105.735, 9E+9, 9E+9, 9E+9, 9E+9, 9E+9]];
PERS jointtarget jt71:= [[-94.9128, -44.2851, 19.6979, -51.0388, 61.854, -105.958], [106.436, 9E+9, 9E+9, 9E+9, 9E+9, 9E+9]];
PERS jointtarget jt72:= [[-94.9342, -44.2998, 19.7755, -51.2807, 62.0102, -105.793], [106.579, 9E+9, 9E+9, 9E+9, 9E+9, 9E+9]];
PERS jointtarget jt73:= [[-93.9971, -44.274, 20.435, -50.9911, 61.3246, -106.603], [105.793, 9E+9, 9E+9, 9E+9, 9E+9, 9E+9]];
PERS jointtarget jt74:= [[-92.4839, -44.2519, 21.9768, -51.8736, 59.7206, -106.462], [104.553, 9E+9, 9E+9, 9E+9, 9E+9, 9E+9]];
PERS jointtarget jt75:= [[-92.3636, -44.3081, 23.0088, -54.7744, 59.4504, -103.886], [105.212, 9E+9, 9E+9, 9E+9, 9E+9, 9E+9]];
PERS jointtarget jt76:= [[-90.979, -44.2382, 24.537, -55.6602, 56.603, -104.303], [103.317, 9E+9, 9E+9, 9E+9, 9E+9, 9E+9]];
PERS jointtarget jt77:= [[-93.3468, -44.3467, 22.9012, -56.204, 59.6426, -103.025], [106.118, 9E+9, 9E+9, 9E+9, 9E+9, 9E+9]];
PERS jointtarget jt78:= [[-95.9476, -44.4393, 21.6, -58.1056, 63.6171, -100.422], [110.129, 9E+9, 9E+9, 9E+9, 9E+9, 9E+9]];
PERS jointtarget jt79:= [[-99.2119, -44.7438, 20.0625, -60.4516, 68.4359, -97.2393], [115.06, 9E+9, 9E+9, 9E+9, 9E+9, 9E+9]];
PERS jointtarget jt80:= [[-99.0416, -44.7218, 20.2216, -60.4879, 68.1645, -97.2825], [114.835, 9E+9, 9E+9, 9E+9, 9E+9, 9E+9]];
PERS jointtarget jt81:= [[-95.0162, -44.4098, 22.7384, -58.8431, 61.8389, -100.303], [108.961, 9E+9, 9E+9, 9E+9, 9E+9, 9E+9]];
PERS jointtarget jt82:= [[-92.7799, -44.3553, 24.1652, -57.9032, 58.1621, -102.063], [105.512, 9E+9, 9E+9, 9E+9, 9E+9, 9E+9]];
PERS jointtarget jt83:= [[-92.7418, -44.3674, 24.5476, -58.6154, 57.9774, -101.37], [105.491, 9E+9, 9E+9, 9E+9, 9E+9, 9E+9]];
PERS jointtarget jt84:= [[-93.2284, -44.4054, 24.5981, -59.3699, 58.3855, -100.604], [106.098, 9E+9, 9E+9, 9E+9, 9E+9, 9E+9]];
PERS jointtarget jt85:= [[-95.0534, -44.4693, 23.383, -59.1209, 59.6689, -100.642], [107.687, 9E+9, 9E+9, 9E+9, 9E+9, 9E+9]];
PERS jointtarget jt86:= [[-94.5187, -44.4182, 23.852, -59.0146, 58.0766, -101.559], [106.65, 9E+9, 9E+9, 9E+9, 9E+9, 9E+9]];
PERS jointtarget jt87:= [[-93.8455, -44.3705, 23.927, -57.6231, 56.7299, -103.459], [105.575, 9E+9, 9E+9, 9E+9, 9E+9, 9E+9]];
PERS jointtarget jt88:= [[-94.3555, -44.3701, 23.1949, -56.9589, 57.7196, -103.103], [106.013, 9E+9, 9E+9, 9E+9, 9E+9, 9E+9]];
PERS jointtarget jt89:= [[-95.7183, -44.3946, 21.5774, -55.9707, 60.3533, -101.648], [107.386, 9E+9, 9E+9, 9E+9, 9E+9, 9E+9]];
PERS jointtarget jt90:= [[-95.8452, -44.3968, 21.3754, -55.8238, 60.6482, -101.54], [107.521, 9E+9, 9E+9, 9E+9, 9E+9, 9E+9]];
PERS jointtarget jt91:= [[-95.1207, -44.3628, 21.6382, -55.2594, 60.0774, -102.927], [106.815, 9E+9, 9E+9, 9E+9, 9E+9, 9E+9]];
PERS jointtarget jt92:= [[-94.1038, -44.314, 22.0186, -54.2388, 58.5404, -104.919], [105.564, 9E+9, 9E+9, 9E+9, 9E+9, 9E+9]];
PERS jointtarget jt93:= [[-93.6735, -44.2971, 22.2067, -53.8481, 57.8856, -105.699], [105.03, 9E+9, 9E+9, 9E+9, 9E+9, 9E+9]];
PERS jointtarget jt94:= [[-94.0244, -44.3407, 22.4523, -55.2662, 59.1274, -103.62], [105.909, 9E+9, 9E+9, 9E+9, 9E+9, 9E+9]];
PERS jointtarget jt95:= [[-93.6228, -44.3501, 23.0907, -55.9521, 58.3617, -102.861], [105.832, 9E+9, 9E+9, 9E+9, 9E+9, 9E+9]];
PERS jointtarget jt96:= [[-93.1799, -44.3591, 24.0715, -56.984, 57.4771, -102.038], [105.577, 9E+9, 9E+9, 9E+9, 9E+9, 9E+9]];
PERS jointtarget jt97:= [[-92.9513, -44.4053, 25.0808, -57.5497, 57.6474, -100.603], [105.896, 9E+9, 9E+9, 9E+9, 9E+9, 9E+9]];
PERS jointtarget jt98:= [[-92.9201, -44.4055, 25.0211, -57.1685, 57.763, -100.904], [105.887, 9E+9, 9E+9, 9E+9, 9E+9, 9E+9]];
PERS jointtarget jt99:= [[-92.8469, -44.5412, 26.6645, -60.5629, 58.0102, -96.8702], [107.359, 9E+9, 9E+9, 9E+9, 9E+9, 9E+9]];
PERS jointtarget jt100:= [[-93.9142, -44.6831, 26.5948, -61.9591, 59.4517, -95.716], [109.523, 9E+9, 9E+9, 9E+9, 9E+9, 9E+9]];
PERS jointtarget jt101:= [[-98.238, -44.9175, 23.5448, -62.1, 66.0078, -93.1505], [115.233, 9E+9, 9E+9, 9E+9, 9E+9, 9E+9]];
PERS jointtarget jt102:= [[-98.7056, -44.9601, 23.3323, -62.3322, 66.7632, -92.6853], [115.852, 9E+9, 9E+9, 9E+9, 9E+9, 9E+9]];
PERS jointtarget jt103:= [[-91.916, -44.5971, 29.5503, -65.2795, 57.1582, -93.8977], [107.115, 9E+9, 9E+9, 9E+9, 9E+9, 9E+9]];
PERS jointtarget jt104:= [[-89.8673, -44.4301, 31.1058, -65.6984, 53.749, -94.0891], [104.528, 9E+9, 9E+9, 9E+9, 9E+9, 9E+9]];
PERS jointtarget jt105:= [[-89.9295, -44.4401, 31.0874, -65.7752, 53.8983, -93.7465], [104.643, 9E+9, 9E+9, 9E+9, 9E+9, 9E+9]];
PERS jointtarget jt106:= [[-90.7338, -44.5019, 30.5781, -65.8613, 55.3613, -92.6339], [105.724, 9E+9, 9E+9, 9E+9, 9E+9, 9E+9]];
PERS jointtarget jt107:= [[-89.8946, -44.4464, 31.269, -65.868, 53.6592, -93.1144], [104.659, 9E+9, 9E+9, 9E+9, 9E+9, 9E+9]];
PERS jointtarget jt108:= [[-89.8801, -44.513, 32.89, -69.9622, 54.4124, -88.644], [105.367, 9E+9, 9E+9, 9E+9, 9E+9, 9E+9]];
PERS jointtarget jt109:= [[-88.7112, -44.4223, 34.1494, -71.2932, 52.49, -88.0137], [103.92, 9E+9, 9E+9, 9E+9, 9E+9, 9E+9]];
PERS jointtarget jt110:= [[-90.2757, -44.557, 33.3185, -71.1332, 54.05, -87.617], [105.664, 9E+9, 9E+9, 9E+9, 9E+9, 9E+9]];
PERS jointtarget jt111:= [[-91.8958, -44.6789, 32.3232, -71.2013, 56.1257, -85.8358], [107.509, 9E+9, 9E+9, 9E+9, 9E+9, 9E+9]];
PERS jointtarget jt112:= [[-92.1992, -44.705, 32.1433, -71.2213, 56.4769, -85.5193], [107.835, 9E+9, 9E+9, 9E+9, 9E+9, 9E+9]];
PERS jointtarget jt113:= [[-90.6221, -44.5305, 33.4476, -71.8247, 52.725, -87.9404], [105.399, 9E+9, 9E+9, 9E+9, 9E+9, 9E+9]];
PERS jointtarget jt114:= [[-89.9446, -44.4436, 34.0154, -72.0842, 50.777, -89.2847], [104.136, 9E+9, 9E+9, 9E+9, 9E+9, 9E+9]];
PERS jointtarget jt115:= [[-91.3685, -44.5225, 32.8994, -71.4333, 52.2008, -88.9102], [105.441, 9E+9, 9E+9, 9E+9, 9E+9, 9E+9]];
PERS jointtarget jt116:= [[-91.9468, -44.5632, 32.4506, -71.1756, 52.7589, -88.7694], [105.954, 9E+9, 9E+9, 9E+9, 9E+9, 9E+9]];
PERS jointtarget jt117:= [[-92.6702, -44.6174, 32.4692, -72.4267, 52.8135, -87.253], [106.46, 9E+9, 9E+9, 9E+9, 9E+9, 9E+9]];
PERS jointtarget jt118:= [[-93.8683, -44.678, 31.4961, -71.8078, 54.1234, -87.4407], [107.651, 9E+9, 9E+9, 9E+9, 9E+9, 9E+9]];
PERS jointtarget jt119:= [[-95.4777, -44.7723, 30.0381, -70.716, 55.9996, -87.9381], [109.234, 9E+9, 9E+9, 9E+9, 9E+9, 9E+9]];
PERS jointtarget jt120:= [[-96.0112, -44.7546, 29.5602, -70.182, 55.8747, -88.4258], [109.173, 9E+9, 9E+9, 9E+9, 9E+9, 9E+9]];
PERS jointtarget jt121:= [[-95.3663, -44.7249, 30.2664, -70.9045, 54.7409, -88.158], [108.433, 9E+9, 9E+9, 9E+9, 9E+9, 9E+9]];
PERS jointtarget jt122:= [[-94.5751, -44.6853, 31.1695, -71.8355, 53.5153, -87.7678], [107.648, 9E+9, 9E+9, 9E+9, 9E+9, 9E+9]];
PERS jointtarget jt123:= [[-93.5809, -44.6499, 32.431, -73.3143, 52.1933, -87.4245], [106.827, 9E+9, 9E+9, 9E+9, 9E+9, 9E+9]];
PERS jointtarget jt124:= [[-93.3017, -44.6293, 32.9336, -73.7964, 51.6156, -86.6448], [106.484, 9E+9, 9E+9, 9E+9, 9E+9, 9E+9]];
PERS jointtarget jt125:= [[-93.2804, -44.6468, 33.4154, -74.8095, 51.4364, -85.3929], [106.545, 9E+9, 9E+9, 9E+9, 9E+9, 9E+9]];
PERS jointtarget jt126:= [[-93.5471, -44.6918, 33.6214, -75.2465, 51.9857, -84.1881], [107.067, 9E+9, 9E+9, 9E+9, 9E+9, 9E+9]];
PERS jointtarget jt127:= [[-92.9526, -44.7474, 35.2168, -77.9369, 52.4692, -80.0799], [107.393, 9E+9, 9E+9, 9E+9, 9E+9, 9E+9]];
PERS jointtarget jt128:= [[-92.9519, -44.7573, 35.0966, -77.1346, 52.4899, -80.9212], [107.52, 9E+9, 9E+9, 9E+9, 9E+9, 9E+9]];
PERS jointtarget jt129:= [[-92.5176, -44.717, 35.5601, -77.5765, 51.5992, -80.9342], [106.98, 9E+9, 9E+9, 9E+9, 9E+9, 9E+9]];
PERS jointtarget jt130:= [[-93.4851, -44.7842, 35.017, -77.5148, 52.8684, -80.2804], [108.027, 9E+9, 9E+9, 9E+9, 9E+9, 9E+9]];
PERS jointtarget jt131:= [[-94.5266, -44.8699, 34.1997, -76.9026, 54.4831, -80.0317], [109.232, 9E+9, 9E+9, 9E+9, 9E+9, 9E+9]];
PERS jointtarget jt132:= [[-95.1034, -44.9274, 33.855, -76.8163, 55.1907, -79.7959], [109.832, 9E+9, 9E+9, 9E+9, 9E+9, 9E+9]];
PERS jointtarget jt133:= [[-93.9936, -44.8371, 35.4913, -79.4087, 52.4086, -78.8089], [108.315, 9E+9, 9E+9, 9E+9, 9E+9, 9E+9]];
PERS jointtarget jt134:= [[-94.0901, -44.8303, 35.7331, -80.3833, 52.1219, -78.5165], [108.134, 9E+9, 9E+9, 9E+9, 9E+9, 9E+9]];
PERS jointtarget jt135:= [[-94.4063, -44.8453, 35.3579, -79.7355, 52.3194, -78.8186], [108.381, 9E+9, 9E+9, 9E+9, 9E+9, 9E+9]];
PERS jointtarget jt136:= [[-97.2857, -45.0097, 32.4679, -76.8463, 55.7451, -79.4687], [111.189, 9E+9, 9E+9, 9E+9, 9E+9, 9E+9]];
PERS jointtarget jt137:= [[-95.7801, -44.8771, 33.3474, -76.9639, 52.2084, -81.391], [109.302, 9E+9, 9E+9, 9E+9, 9E+9, 9E+9]];
PERS jointtarget jt138:= [[-94.956, -44.8076, 33.9544, -77.2636, 50.3892, -81.8225], [108.23, 9E+9, 9E+9, 9E+9, 9E+9, 9E+9]];
PERS jointtarget jt139:= [[-90.9404, -44.2023, 36.0205, -78.2635, 41.8041, -74.7287], [102.507, 9E+9, 9E+9, 9E+9, 9E+9, 9E+9]];
PERS jointtarget jt140:= [[-88.0911, -43.9217, 37.4946, -79.4813, 34.0919, -68.797], [97.8382, 9E+9, 9E+9, 9E+9, 9E+9, 9E+9]];
PERS jointtarget jt141:= [[-87.3732, -43.8575, 37.8525, -79.8387, 31.843, -67.0602], [96.4936, 9E+9, 9E+9, 9E+9, 9E+9, 9E+9]];
PERS jointtarget jt142:= [[-87.5108, -43.8744, 37.7837, -79.7626, 32.2823, -67.388], [96.7772, 9E+9, 9E+9, 9E+9, 9E+9, 9E+9]];
PERS jointtarget jt143:= [[-92.6896, -44.4427, 35.039, -77.4762, 45.9762, -77.5555], [105.209, 9E+9, 9E+9, 9E+9, 9E+9, 9E+9]];
PERS jointtarget jt144:= [[-94.4662, -44.73, 34.0466, -76.8387, 49.7708, -80.3852], [107.714, 9E+9, 9E+9, 9E+9, 9E+9, 9E+9]];
PERS jointtarget jt145:= [[-95.007, -44.8362, 33.8744, -77.0316, 50.9454, -80.7498], [108.533, 9E+9, 9E+9, 9E+9, 9E+9, 9E+9]];
PERS jointtarget jt146:= [[-95.6622, -44.9295, 34.0205, -78.4242, 52.7669, -79.8982], [109.688, 9E+9, 9E+9, 9E+9, 9E+9, 9E+9]];
PERS jointtarget jt147:= [[-94.5476, -44.8239, 34.2942, -77.4545, 50.5582, -80.0261], [108.325, 9E+9, 9E+9, 9E+9, 9E+9, 9E+9]];
PERS jointtarget jt148:= [[-95.2694, -44.9031, 34.1546, -78.015, 52.4874, -79.4422], [109.264, 9E+9, 9E+9, 9E+9, 9E+9, 9E+9]];
PERS jointtarget jt149:= [[-96.3705, -44.9881, 32.9436, -76.7202, 54.0609, -80.1583], [110.621, 9E+9, 9E+9, 9E+9, 9E+9, 9E+9]];
PERS jointtarget jt150:= [[-95.1833, -44.802, 34.1665, -78.389, 52.3479, -79.037], [108.963, 9E+9, 9E+9, 9E+9, 9E+9, 9E+9]];
PERS jointtarget jt151:= [[-93.8297, -44.6048, 34.7843, -78.4381, 49.3465, -77.7314], [107.2, 9E+9, 9E+9, 9E+9, 9E+9, 9E+9]];
PERS jointtarget jt152:= [[-88.0447, -44.0014, 37.3157, -78.4567, 33.7305, -71.4842], [98.3426, 9E+9, 9E+9, 9E+9, 9E+9, 9E+9]];
PERS jointtarget jt153:= [[-87.3253, -43.9041, 37.5355, -78.0947, 31.9772, -71.6112], [97.0193, 9E+9, 9E+9, 9E+9, 9E+9, 9E+9]];
PERS jointtarget jt154:= [[-87.342, -43.9007, 37.5219, -78.0863, 32.1037, -71.6982], [97.0512, 9E+9, 9E+9, 9E+9, 9E+9, 9E+9]];
PERS jointtarget jt155:= [[-88.398, -43.9787, 37.0913, -78.2962, 35.6416, -72.8555], [99.0079, 9E+9, 9E+9, 9E+9, 9E+9, 9E+9]];
PERS jointtarget jt156:= [[-93.5035, -44.5392, 35.0751, -79.1092, 49.0736, -77.2283], [106.814, 9E+9, 9E+9, 9E+9, 9E+9, 9E+9]];
PERS jointtarget jt157:= [[-95.5497, -44.8815, 34.2815, -79.3732, 53.4641, -78.6627], [109.544, 9E+9, 9E+9, 9E+9, 9E+9, 9E+9]];
PERS jointtarget jt158:= [[-96.1204, -44.9748, 33.8752, -79.0769, 54.4987, -78.9239], [110.205, 9E+9, 9E+9, 9E+9, 9E+9, 9E+9]];
PERS jointtarget jt159:= [[-96.2779, -44.946, 33.149, -77.5044, 54.3708, -79.9718], [110.117, 9E+9, 9E+9, 9E+9, 9E+9, 9E+9]];
PERS jointtarget jt160:= [[-95.6494, -44.8898, 33.5067, -77.4856, 53.1402, -81.246], [109.39, 9E+9, 9E+9, 9E+9, 9E+9, 9E+9]];
PERS jointtarget jt161:= [[-95.2694, -44.8615, 33.4935, -76.9103, 52.2703, -81.6568], [108.941, 9E+9, 9E+9, 9E+9, 9E+9, 9E+9]];
PERS jointtarget jt162:= [[-95.3833, -44.8857, 33.7408, -77.8362, 53.2257, -80.8731], [109.277, 9E+9, 9E+9, 9E+9, 9E+9, 9E+9]];
PERS jointtarget jt163:= [[-95.3336, -44.9035, 34.0965, -78.7201, 53.7808, -80.2189], [109.372, 9E+9, 9E+9, 9E+9, 9E+9, 9E+9]];
PERS jointtarget jt164:= [[-94.9156, -44.8653, 33.8661, -77.6632, 53.6249, -80.6369], [108.962, 9E+9, 9E+9, 9E+9, 9E+9, 9E+9]];
PERS jointtarget jt165:= [[-95.1637, -44.885, 33.7043, -77.5005, 54.1004, -80.4823], [109.345, 9E+9, 9E+9, 9E+9, 9E+9, 9E+9]];
PERS jointtarget jt166:= [[-94.5832, -44.8318, 34.1257, -77.7122, 52.7651, -80.1005], [108.472, 9E+9, 9E+9, 9E+9, 9E+9, 9E+9]];
PERS jointtarget jt167:= [[-94.856, -44.8534, 33.9512, -77.6271, 53.229, -80.0724], [108.831, 9E+9, 9E+9, 9E+9, 9E+9, 9E+9]];
PERS jointtarget jt168:= [[-95.1852, -44.8812, 33.7285, -77.5104, 53.7721, -80.0671], [109.256, 9E+9, 9E+9, 9E+9, 9E+9, 9E+9]];
PERS jointtarget jt169:= [[-95.6134, -44.921, 33.3416, -77.1434, 54.3308, -80.2154], [109.727, 9E+9, 9E+9, 9E+9, 9E+9, 9E+9]];
PERS jointtarget jt170:= [[-96.872, -45.0086, 32.2903, -76.3939, 56.6539, -79.8797], [111.209, 9E+9, 9E+9, 9E+9, 9E+9, 9E+9]];
PERS jointtarget jt171:= [[-96.5989, -44.9841, 32.4573, -76.4479, 55.9299, -80.1691], [110.79, 9E+9, 9E+9, 9E+9, 9E+9, 9E+9]];
PERS jointtarget jt172:= [[-95.47, -44.8624, 33.2115, -76.5423, 53.5127, -82.3208], [109.107, 9E+9, 9E+9, 9E+9, 9E+9, 9E+9]];
PERS jointtarget jt173:= [[-95.6819, -44.876, 32.9778, -76.2885, 53.7936, -82.1242], [109.368, 9E+9, 9E+9, 9E+9, 9E+9, 9E+9]];
PERS jointtarget jt174:= [[-96.0216, -44.9048, 32.6484, -75.9898, 54.2709, -81.6236], [109.802, 9E+9, 9E+9, 9E+9, 9E+9, 9E+9]];
PERS jointtarget jt175:= [[-96.0295, -44.9122, 32.6802, -76.0891, 54.3246, -81.3607], [109.846, 9E+9, 9E+9, 9E+9, 9E+9, 9E+9]];
PERS jointtarget jt176:= [[-96.0078, -44.9146, 32.7105, -76.1927, 54.4117, -81.2523], [109.963, 9E+9, 9E+9, 9E+9, 9E+9, 9E+9]];
PERS jointtarget jt177:= [[-95.4093, -44.8711, 33.2874, -76.6738, 53.5101, -81.8078], [109.225, 9E+9, 9E+9, 9E+9, 9E+9, 9E+9]];
PERS jointtarget jt178:= [[-95.7894, -44.9029, 32.8794, -76.1019, 54.1491, -81.8068], [109.713, 9E+9, 9E+9, 9E+9, 9E+9, 9E+9]];
PERS jointtarget jt179:= [[-95.9103, -44.9091, 32.6964, -75.7464, 54.3665, -81.8222], [109.842, 9E+9, 9E+9, 9E+9, 9E+9, 9E+9]];
PERS jointtarget jt180:= [[-95.6244, -44.8843, 32.9452, -75.8808, 54.0372, -81.7154], [109.488, 9E+9, 9E+9, 9E+9, 9E+9, 9E+9]];
PERS jointtarget jt181:= [[-94.8186, -44.8155, 33.3693, -75.7432, 52.7915, -82.2076], [108.541, 9E+9, 9E+9, 9E+9, 9E+9, 9E+9]];
PERS jointtarget jt182:= [[-94.8379, -44.8171, 33.2751, -75.5063, 52.6463, -82.1463], [108.578, 9E+9, 9E+9, 9E+9, 9E+9, 9E+9]];
PERS jointtarget jt183:= [[-95.7364, -44.9057, 32.8176, -75.6436, 54.6204, -81.6618], [109.836, 9E+9, 9E+9, 9E+9, 9E+9, 9E+9]];
PERS jointtarget jt184:= [[-95.7927, -44.9128, 32.8053, -75.6626, 54.8258, -81.5644], [109.941, 9E+9, 9E+9, 9E+9, 9E+9, 9E+9]];
PERS jointtarget jt185:= [[-95.0386, -44.8433, 33.158, -75.4018, 53.2915, -82.0058], [108.89, 9E+9, 9E+9, 9E+9, 9E+9, 9E+9]];
PERS jointtarget jt186:= [[-95.7764, -44.8636, 31.8702, -73.1998, 54.2522, -82.3715], [109.52, 9E+9, 9E+9, 9E+9, 9E+9, 9E+9]];
PERS jointtarget jt187:= [[-95.66, -44.8902, 32.643, -74.8607, 54.1995, -82.1154], [109.648, 9E+9, 9E+9, 9E+9, 9E+9, 9E+9]];
PERS jointtarget jt188:= [[-95.5695, -44.8878, 32.8633, -75.2196, 54.1129, -82.0719], [109.585, 9E+9, 9E+9, 9E+9, 9E+9, 9E+9]];
PERS jointtarget jt189:= [[-95.1873, -44.8568, 33.0477, -75.1026, 53.5612, -82.2426], [109.069, 9E+9, 9E+9, 9E+9, 9E+9, 9E+9]];
PERS jointtarget jt190:= [[-94.6137, -44.8265, 33.8387, -76.2351, 52.726, -81.741], [108.523, 9E+9, 9E+9, 9E+9, 9E+9, 9E+9]];
PERS jointtarget jt191:= [[-94.6766, -44.8296, 33.7822, -76.11, 52.7521, -82.083], [108.589, 9E+9, 9E+9, 9E+9, 9E+9, 9E+9]];
PERS jointtarget jt192:= [[-95.1375, -44.8618, 33.29, -75.3392, 53.3884, -81.9252], [109.095, 9E+9, 9E+9, 9E+9, 9E+9, 9E+9]];
PERS jointtarget jt193:= [[-95.2958, -44.8734, 33.0328, -74.907, 53.5725, -81.7596], [109.299, 9E+9, 9E+9, 9E+9, 9E+9, 9E+9]];
PERS jointtarget jt194:= [[-95.4539, -44.8839, 32.7587, -74.4238, 53.7559, -81.606], [109.512, 9E+9, 9E+9, 9E+9, 9E+9, 9E+9]];
PERS jointtarget jt195:= [[-95.3361, -44.8976, 33.1634, -75.261, 53.747, -81.6171], [109.514, 9E+9, 9E+9, 9E+9, 9E+9, 9E+9]];
PERS jointtarget jt196:= [[-95.6631, -44.899, 32.5676, -74.2785, 54.4006, -81.6185], [109.797, 9E+9, 9E+9, 9E+9, 9E+9, 9E+9]];
PERS jointtarget jt197:= [[-95.3582, -44.8837, 32.9235, -74.7653, 53.8868, -81.6644], [109.45, 9E+9, 9E+9, 9E+9, 9E+9, 9E+9]];
PERS jointtarget jt198:= [[-94.9729, -44.8537, 33.409, -75.3273, 53.0406, -81.9434], [108.941, 9E+9, 9E+9, 9E+9, 9E+9, 9E+9]];
PERS jointtarget jt199:= [[-95.3012, -44.8797, 33.0819, -74.9695, 53.4467, -82.0264], [109.358, 9E+9, 9E+9, 9E+9, 9E+9, 9E+9]];
PERS jointtarget jt200:= [[-95.4453, -44.8946, 33.0144, -75.004, 53.6145, -81.5772], [109.547, 9E+9, 9E+9, 9E+9, 9E+9, 9E+9]];
PERS jointtarget jt201:= [[-94.5732, -44.8257, 33.8451, -75.7786, 52.1652, -82.1398], [108.435, 9E+9, 9E+9, 9E+9, 9E+9, 9E+9]];
PERS jointtarget jt202:= [[-94.7901, -44.8439, 33.6838, -75.6978, 52.6125, -82.0356], [108.745, 9E+9, 9E+9, 9E+9, 9E+9, 9E+9]];
PERS jointtarget jt203:= [[-95.4638, -44.9194, 33.2699, -75.6223, 53.8801, -81.3198], [109.748, 9E+9, 9E+9, 9E+9, 9E+9, 9E+9]];
PERS jointtarget jt204:= [[-95.2032, -44.8935, 33.5842, -75.9497, 53.333, -81.1903], [109.454, 9E+9, 9E+9, 9E+9, 9E+9, 9E+9]];
PERS jointtarget jt205:= [[-95.763, -44.9116, 32.7194, -74.4956, 53.9619, -81.3522], [109.856, 9E+9, 9E+9, 9E+9, 9E+9, 9E+9]];
PERS jointtarget jt206:= [[-96.0774, -44.9173, 32.1246, -73.5665, 54.447, -81.1429], [110.077, 9E+9, 9E+9, 9E+9, 9E+9, 9E+9]];
PERS jointtarget jt207:= [[-96.7674, -44.9743, 31.4903, -73.0779, 55.9895, -80.9245], [110.929, 9E+9, 9E+9, 9E+9, 9E+9, 9E+9]];
PERS jointtarget jt208:= [[-96.8229, -45.0345, 32.2275, -74.8807, 56.5421, -80.2387], [111.489, 9E+9, 9E+9, 9E+9, 9E+9, 9E+9]];
PERS jointtarget jt209:= [[-95.8064, -44.963, 33.0384, -75.4208, 55.0508, -80.6554], [110.298, 9E+9, 9E+9, 9E+9, 9E+9, 9E+9]];
PERS jointtarget jt210:= [[-96.7934, -45.0087, 31.824, -73.9163, 56.6937, -80.2374], [111.422, 9E+9, 9E+9, 9E+9, 9E+9, 9E+9]];
PERS jointtarget jt211:= [[-94.6504, -44.8582, 33.8923, -75.7776, 52.9443, -81.5044], [108.86, 9E+9, 9E+9, 9E+9, 9E+9, 9E+9]];
PERS jointtarget jt212:= [[-94.7592, -44.8653, 33.7316, -75.5278, 53.1082, -81.6252], [108.974, 9E+9, 9E+9, 9E+9, 9E+9, 9E+9]];
PERS jointtarget jt213:= [[-95.3676, -44.9, 33.0484, -74.6926, 54.1623, -81.5862], [109.675, 9E+9, 9E+9, 9E+9, 9E+9, 9E+9]];
PERS jointtarget jt214:= [[-95.9549, -44.9501, 32.4765, -74.1192, 55.2511, -81.5815], [110.373, 9E+9, 9E+9, 9E+9, 9E+9, 9E+9]];
PERS jointtarget jt215:= [[-95.6481, -44.956, 33.1151, -75.1944, 54.9674, -81.4861], [110.156, 9E+9, 9E+9, 9E+9, 9E+9, 9E+9]];
PERS jointtarget jt216:= [[-95.8283, -44.9788, 33.1357, -75.5113, 55.2976, -80.8968], [110.49, 9E+9, 9E+9, 9E+9, 9E+9, 9E+9]];
PERS jointtarget jt217:= [[-95.0292, -44.9103, 33.5892, -75.4812, 53.6031, -81.4541], [109.488, 9E+9, 9E+9, 9E+9, 9E+9, 9E+9]];
PERS jointtarget jt218:= [[-95.4435, -44.9274, 33.1623, -75.0364, 54.2384, -81.2253], [109.905, 9E+9, 9E+9, 9E+9, 9E+9, 9E+9]];
PERS jointtarget jt219:= [[-96.1284, -44.9754, 32.5801, -74.5962, 55.3824, -80.707], [110.669, 9E+9, 9E+9, 9E+9, 9E+9, 9E+9]];
PERS jointtarget jt220:= [[-95.9583, -44.9662, 32.7835, -74.8637, 55.1025, -80.7509], [110.478, 9E+9, 9E+9, 9E+9, 9E+9, 9E+9]];
PERS jointtarget jt221:= [[-95.4351, -44.9339, 33.3574, -75.6308, 54.2816, -80.9616], [109.886, 9E+9, 9E+9, 9E+9, 9E+9, 9E+9]];
PERS jointtarget jt222:= [[-95.3413, -44.9264, 33.4406, -75.7933, 54.1741, -81.0248], [109.781, 9E+9, 9E+9, 9E+9, 9E+9, 9E+9]];
PERS jointtarget jt223:= [[-95.2401, -44.919, 33.5129, -75.8314, 54.0104, -80.8662], [109.671, 9E+9, 9E+9, 9E+9, 9E+9, 9E+9]];
PERS jointtarget jt224:= [[-95.0123, -44.8963, 33.7676, -76.0355, 53.6451, -81.1343], [109.381, 9E+9, 9E+9, 9E+9, 9E+9, 9E+9]];
PERS jointtarget jt225:= [[-94.6214, -44.8676, 34.1231, -76.3213, 53.1234, -81.179], [108.905, 9E+9, 9E+9, 9E+9, 9E+9, 9E+9]];
PERS jointtarget jt226:= [[-95.2026, -44.926, 33.5666, -75.7357, 54.0721, -80.5967], [109.758, 9E+9, 9E+9, 9E+9, 9E+9, 9E+9]];
PERS jointtarget jt227:= [[-95.3848, -44.944, 33.5213, -75.8895, 54.521, -80.7064], [109.993, 9E+9, 9E+9, 9E+9, 9E+9, 9E+9]];
PERS jointtarget jt228:= [[-95.0554, -44.9173, 33.7002, -75.7889, 53.6122, -81.1024], [109.566, 9E+9, 9E+9, 9E+9, 9E+9, 9E+9]];
PERS jointtarget jt229:= [[-95.0699, -44.9147, 33.5896, -75.6577, 53.686, -80.9329], [109.596, 9E+9, 9E+9, 9E+9, 9E+9, 9E+9]];
PERS jointtarget jt230:= [[-95.1769, -44.9304, 33.6031, -75.9631, 54.1054, -80.3816], [109.736, 9E+9, 9E+9, 9E+9, 9E+9, 9E+9]];
PERS jointtarget jt231:= [[-95.7961, -44.9634, 33.0126, -75.4389, 55.0878, -79.9517], [110.426, 9E+9, 9E+9, 9E+9, 9E+9, 9E+9]];
PERS jointtarget jt232:= [[-94.9471, -44.9119, 33.9635, -76.5713, 53.7506, -80.0771], [109.43, 9E+9, 9E+9, 9E+9, 9E+9, 9E+9]];
PERS jointtarget jt233:= [[-95.2889, -44.936, 33.6826, -76.2251, 54.3332, -80.6823], [109.897, 9E+9, 9E+9, 9E+9, 9E+9, 9E+9]];
PERS jointtarget jt234:= [[-95.1226, -44.9257, 33.8534, -76.3673, 54.0412, -80.7795], [109.705, 9E+9, 9E+9, 9E+9, 9E+9, 9E+9]];
PERS jointtarget jt235:= [[-94.6446, -44.896, 34.3347, -76.8156, 53.194, -80.8266], [109.132, 9E+9, 9E+9, 9E+9, 9E+9, 9E+9]];
PERS jointtarget jt236:= [[-94.8221, -44.9094, 34.2049, -76.7181, 53.476, -80.7713], [109.368, 9E+9, 9E+9, 9E+9, 9E+9, 9E+9]];
PERS jointtarget jt237:= [[-95.221, -44.9435, 33.8404, -76.3753, 54.1562, -80.5844], [109.866, 9E+9, 9E+9, 9E+9, 9E+9, 9E+9]];
PERS jointtarget jt238:= [[-94.18, -44.8358, 34.7284, -77.1114, 52.113, -80.7058], [108.399, 9E+9, 9E+9, 9E+9, 9E+9, 9E+9]];
PERS jointtarget jt239:= [[-94.2606, -44.8478, 34.6627, -77.0999, 52.3737, -80.7176], [108.573, 9E+9, 9E+9, 9E+9, 9E+9, 9E+9]];
PERS jointtarget jt240:= [[-94.3402, -44.855, 34.5599, -76.9439, 52.5307, -80.7395], [108.677, 9E+9, 9E+9, 9E+9, 9E+9, 9E+9]];
PERS jointtarget jt241:= [[-94.2891, -44.8701, 34.6932, -77.129, 52.7666, -80.5712], [108.771, 9E+9, 9E+9, 9E+9, 9E+9, 9E+9]];
PERS jointtarget jt242:= [[-94.6761, -44.9179, 34.4929, -77.1997, 53.6444, -79.8063], [109.353, 9E+9, 9E+9, 9E+9, 9E+9, 9E+9]];
PERS jointtarget jt243:= [[-95.0499, -44.9559, 34.4674, -77.6217, 54.3925, -79.8202], [109.877, 9E+9, 9E+9, 9E+9, 9E+9, 9E+9]];
PERS jointtarget jt244:= [[-94.5801, -44.8907, 34.4706, -77.0677, 53.1866, -80.2601], [109.072, 9E+9, 9E+9, 9E+9, 9E+9, 9E+9]];
PERS jointtarget jt245:= [[-94.4992, -44.8806, 34.4528, -76.9538, 52.9197, -80.434], [108.923, 9E+9, 9E+9, 9E+9, 9E+9, 9E+9]];
PERS jointtarget jt246:= [[-94.6969, -44.8928, 34.1974, -76.6399, 53.2258, -80.3925], [109.135, 9E+9, 9E+9, 9E+9, 9E+9, 9E+9]];
PERS jointtarget jt247:= [[-95.8676, -44.9632, 32.8133, -74.959, 55.2343, -80.0015], [110.453, 9E+9, 9E+9, 9E+9, 9E+9, 9E+9]];
PERS jointtarget jt248:= [[-95.6841, -44.9546, 33.056, -75.2462, 54.9557, -80.2313], [110.257, 9E+9, 9E+9, 9E+9, 9E+9, 9E+9]];
PERS jointtarget jt249:= [[-95.128, -44.9342, 33.9469, -76.5642, 54.1804, -80.4301], [109.723, 9E+9, 9E+9, 9E+9, 9E+9, 9E+9]];
PERS jointtarget jt250:= [[-95.1075, -44.9417, 34.1036, -76.9427, 54.1947, -80.1577], [109.755, 9E+9, 9E+9, 9E+9, 9E+9, 9E+9]];
PERS jointtarget jt251:= [[-95.2993, -44.95, 33.8631, -76.6147, 54.4181, -80.319], [109.97, 9E+9, 9E+9, 9E+9, 9E+9, 9E+9]];
PERS jointtarget jt252:= [[-95.2915, -44.946, 33.8177, -76.4992, 54.2418, -80.5194], [109.913, 9E+9, 9E+9, 9E+9, 9E+9, 9E+9]];
PERS jointtarget jt253:= [[-94.9566, -44.9049, 34.0025, -76.5788, 53.4609, -80.3746], [109.4, 9E+9, 9E+9, 9E+9, 9E+9, 9E+9]];
PERS jointtarget jt254:= [[-94.8637, -44.9004, 34.0899, -76.518, 53.3036, -80.668], [109.306, 9E+9, 9E+9, 9E+9, 9E+9, 9E+9]];
PERS jointtarget jt255:= [[-94.8754, -44.9024, 34.0804, -76.5145, 53.3771, -80.5147], [109.333, 9E+9, 9E+9, 9E+9, 9E+9, 9E+9]];
PERS jointtarget jt256:= [[-95.0959, -44.9229, 33.9857, -76.5578, 53.8536, -80.6465], [109.588, 9E+9, 9E+9, 9E+9, 9E+9, 9E+9]];
PERS jointtarget jt257:= [[-95.0143, -44.9177, 34.0534, -76.4943, 53.2298, -81.1698], [109.515, 9E+9, 9E+9, 9E+9, 9E+9, 9E+9]];
PERS jointtarget jt258:= [[-94.6974, -44.8855, 34.1913, -76.4424, 52.7873, -81.2858], [109.079, 9E+9, 9E+9, 9E+9, 9E+9, 9E+9]];
PERS jointtarget jt259:= [[-94.4533, -44.8665, 34.3427, -76.5257, 52.4573, -81.1757], [108.803, 9E+9, 9E+9, 9E+9, 9E+9, 9E+9]];
PERS jointtarget jt260:= [[-96.1667, -44.9991, 32.9616, -75.3441, 55.405, -80.8126], [110.981, 9E+9, 9E+9, 9E+9, 9E+9, 9E+9]];
PERS jointtarget jt261:= [[-96.846, -45.0629, 32.4042, -74.8879, 56.5468, -80.6759], [111.823, 9E+9, 9E+9, 9E+9, 9E+9, 9E+9]];
PERS jointtarget jt262:= [[-96.618, -45.0451, 32.6231, -75.0696, 56.203, -80.6951], [111.537, 9E+9, 9E+9, 9E+9, 9E+9, 9E+9]];
PERS jointtarget jt263:= [[-95.283, -44.9449, 33.7951, -76.07, 54.0351, -80.9118], [109.873, 9E+9, 9E+9, 9E+9, 9E+9, 9E+9]];
PERS jointtarget jt264:= [[-94.7303, -44.8954, 34.2311, -76.3909, 53.0616, -81.2404], [109.176, 9E+9, 9E+9, 9E+9, 9E+9, 9E+9]];
PERS jointtarget jt265:= [[-94.5659, -44.8641, 34.1539, -75.9649, 52.8934, -81.3947], [108.802, 9E+9, 9E+9, 9E+9, 9E+9, 9E+9]];
PERS jointtarget jt266:= [[-95.2668, -44.9314, 33.7752, -75.9525, 54.0186, -81.0722], [109.765, 9E+9, 9E+9, 9E+9, 9E+9, 9E+9]];
PERS jointtarget jt267:= [[-95.1262, -44.9233, 33.8495, -76.0655, 53.8125, -80.8878], [109.648, 9E+9, 9E+9, 9E+9, 9E+9, 9E+9]];
PERS jointtarget jt268:= [[-94.5448, -44.8659, 34.3101, -76.368, 52.7512, -81.2749], [108.821, 9E+9, 9E+9, 9E+9, 9E+9, 9E+9]];
PERS jointtarget jt269:= [[-94.7808, -44.8773, 34.0905, -76.1441, 53.0566, -81.1916], [109.106, 9E+9, 9E+9, 9E+9, 9E+9, 9E+9]];
PERS jointtarget jt270:= [[-94.6688, -44.8746, 34.2222, -76.4169, 52.7824, -80.8725], [108.928, 9E+9, 9E+9, 9E+9, 9E+9, 9E+9]];
PERS jointtarget jt271:= [[-94.7674, -44.8811, 34.2464, -76.6486, 53.0624, -80.7782], [109.084, 9E+9, 9E+9, 9E+9, 9E+9, 9E+9]];
PERS jointtarget jt272:= [[-94.4388, -44.8653, 34.6479, -77.2262, 52.5126, -80.9219], [108.701, 9E+9, 9E+9, 9E+9, 9E+9, 9E+9]];
PERS jointtarget jt273:= [[-94.9798, -44.9062, 34.1295, -76.6252, 53.4968, -80.7159], [109.377, 9E+9, 9E+9, 9E+9, 9E+9, 9E+9]];
PERS jointtarget jt274:= [[-95.1876, -44.9214, 33.9602, -76.4179, 53.6805, -80.6743], [109.657, 9E+9, 9E+9, 9E+9, 9E+9, 9E+9]];
PERS jointtarget jt275:= [[-94.8083, -44.8868, 34.2876, -76.7003, 53.0422, -80.8263], [109.156, 9E+9, 9E+9, 9E+9, 9E+9, 9E+9]];
PERS jointtarget jt276:= [[-94.4531, -44.8594, 34.7163, -77.178, 52.3784, -81.4274], [108.636, 9E+9, 9E+9, 9E+9, 9E+9, 9E+9]];
PERS jointtarget jt277:= [[-95.424, -44.9444, 33.8441, -76.3372, 54.0414, -80.2691], [109.884, 9E+9, 9E+9, 9E+9, 9E+9, 9E+9]];
PERS jointtarget jt278:= [[-94.4676, -44.8619, 34.5697, -76.8972, 52.2761, -80.8548], [108.704, 9E+9, 9E+9, 9E+9, 9E+9, 9E+9]];
PERS jointtarget jt279:= [[-94.5193, -44.8611, 34.4774, -76.7835, 52.4738, -80.7776], [108.743, 9E+9, 9E+9, 9E+9, 9E+9, 9E+9]];
PERS jointtarget jt280:= [[-94.8715, -44.8913, 34.2243, -76.6556, 53.2342, -80.8803], [109.17, 9E+9, 9E+9, 9E+9, 9E+9, 9E+9]];
PERS jointtarget jt281:= [[-95.2614, -44.9336, 34.1234, -77.1637, 54.1228, -80.0151], [109.673, 9E+9, 9E+9, 9E+9, 9E+9, 9E+9]];
PERS jointtarget jt282:= [[-94.7144, -44.8727, 34.3017, -76.7553, 53.0545, -80.6844], [108.936, 9E+9, 9E+9, 9E+9, 9E+9, 9E+9]];
PERS jointtarget jt283:= [[-94.4227, -44.853, 34.5575, -76.9325, 52.4512, -80.6824], [108.584, 9E+9, 9E+9, 9E+9, 9E+9, 9E+9]];
PERS jointtarget jt284:= [[-94.8805, -44.8947, 34.3319, -76.9898, 53.2965, -80.2541], [109.223, 9E+9, 9E+9, 9E+9, 9E+9, 9E+9]];
PERS jointtarget jt285:= [[-94.9244, -44.9239, 34.4996, -77.4095, 53.513, -80.0306], [109.444, 9E+9, 9E+9, 9E+9, 9E+9, 9E+9]];
PERS jointtarget jt286:= [[-95.5383, -44.9705, 33.7689, -76.532, 54.7807, -79.851], [110.219, 9E+9, 9E+9, 9E+9, 9E+9, 9E+9]];
PERS jointtarget jt287:= [[-94.7526, -44.9158, 34.5935, -77.5598, 53.5199, -79.6157], [109.293, 9E+9, 9E+9, 9E+9, 9E+9, 9E+9]];
PERS jointtarget jt288:= [[-94.7257, -44.9059, 34.5132, -77.1738, 53.3462, -80.063], [109.251, 9E+9, 9E+9, 9E+9, 9E+9, 9E+9]];
PERS jointtarget jt289:= [[-95.744, -45.0401, 34.112, -77.009, 55.4209, -79.7431], [111.025, 9E+9, 9E+9, 9E+9, 9E+9, 9E+9]];
PERS jointtarget jt290:= [[-93.9103, -44.9684, 35.7999, -77.4845, 53.9464, -77.932], [109.78, 9E+9, 9E+9, 9E+9, 9E+9, 9E+9]];
PERS jointtarget jt291:= [[-98.5518, -45.4075, 31.6791, -72.9377, 60.9264, -76.7241], [116.293, 9E+9, 9E+9, 9E+9, 9E+9, 9E+9]];
PERS jointtarget jt292:= [[-99.8862, -45.5742, 30.6552, -72.1947, 62.9156, -76.2808], [118.227, 9E+9, 9E+9, 9E+9, 9E+9, 9E+9]];
PERS jointtarget jt293:= [[-100.743, -45.6606, 30.3202, -72.4275, 64.376, -75.827], [119.64, 9E+9, 9E+9, 9E+9, 9E+9, 9E+9]];
PERS jointtarget jt294:= [[-103.351, -45.9921, 29.3263, -73.2262, 68.7659, -74.4631], [123.809, 9E+9, 9E+9, 9E+9, 9E+9, 9E+9]];
PERS jointtarget jt295:= [[-103.751, -46.0649, 29.2758, -73.5143, 69.5017, -74.134], [124.509, 9E+9, 9E+9, 9E+9, 9E+9, 9E+9]];
PERS jointtarget jt296:= [[-90.7766, -44.9491, 41.2261, -85.9712, 53.783, -69.6922], [108.504, 9E+9, 9E+9, 9E+9, 9E+9, 9E+9]];
PERS jointtarget jt297:= [[-90.8351, -44.9538, 41.3897, -86.2135, 53.9671, -69.3613], [108.403, 9E+9, 9E+9, 9E+9, 9E+9, 9E+9]];
PERS jointtarget jt298:= [[-90.8895, -44.9543, 41.1364, -86.612, 54.2425, -68.9775], [108.45, 9E+9, 9E+9, 9E+9, 9E+9, 9E+9]];
PERS jointtarget jt299:= [[-90.6386, -44.906, 40.6196, -85.2081, 53.3413, -70.0932], [108.02, 9E+9, 9E+9, 9E+9, 9E+9, 9E+9]];
PERS jointtarget jt300:= [[-96.3646, -45.3533, 36.6971, -82.2837, 61.57, -70.7191], [115.746, 9E+9, 9E+9, 9E+9, 9E+9, 9E+9]];
PERS jointtarget jt301:= [[-99.5207, -45.8052, 34.3249, -80.7132, 65.8702, -70.9681], [119.765, 9E+9, 9E+9, 9E+9, 9E+9, 9E+9]];
PERS jointtarget jt302:= [[-100.055, -45.9482, 33.7959, -80.4186, 66.5779, -71.367], [120.376, 9E+9, 9E+9, 9E+9, 9E+9, 9E+9]];
PERS jointtarget jt303:= [[-93.139, -45.0597, 38.3516, -83.466, 56.2052, -70.6833], [110.881, 9E+9, 9E+9, 9E+9, 9E+9, 9E+9]];
PERS jointtarget jt304:= [[-91.6683, -44.9379, 39.2521, -84.1551, 53.8405, -70.3605], [108.681, 9E+9, 9E+9, 9E+9, 9E+9, 9E+9]];
PERS jointtarget jt305:= [[-92.491, -45.0206, 38.7437, -83.8467, 55.0103, -70.5656], [109.549, 9E+9, 9E+9, 9E+9, 9E+9, 9E+9]];
PERS jointtarget jt306:= [[-93.1628, -45.0873, 38.3209, -83.5778, 55.9974, -70.7294], [110.318, 9E+9, 9E+9, 9E+9, 9E+9, 9E+9]];
PERS jointtarget jt307:= [[-91.4549, -44.8667, 39.0718, -84.0892, 52.9506, -71.6727], [107.88, 9E+9, 9E+9, 9E+9, 9E+9, 9E+9]];
PERS jointtarget jt308:= [[-92.6071, -45.0016, 38.6602, -84.5478, 55.1049, -70.7918], [109.372, 9E+9, 9E+9, 9E+9, 9E+9, 9E+9]];
PERS jointtarget jt309:= [[-92.545, -44.9526, 38.6319, -84.3527, 53.9345, -71.4955], [108.84, 9E+9, 9E+9, 9E+9, 9E+9, 9E+9]];
PERS jointtarget jt310:= [[-92.8466, -44.8578, 37.3293, -80.7453, 51.6719, -74.8635], [108.046, 9E+9, 9E+9, 9E+9, 9E+9, 9E+9]];
PERS jointtarget jt311:= [[-95.2961, -45.0473, 35.158, -78.2142, 54.8238, -74.2921], [110.709, 9E+9, 9E+9, 9E+9, 9E+9, 9E+9]];
PERS jointtarget jt312:= [[-95.5666, -45.0584, 34.8692, -77.8532, 54.9144, -74.569], [110.863, 9E+9, 9E+9, 9E+9, 9E+9, 9E+9]];
PERS jointtarget jt313:= [[-95.2729, -45.0187, 35.0254, -77.8728, 53.9245, -75.4893], [110.306, 9E+9, 9E+9, 9E+9, 9E+9, 9E+9]];
PERS jointtarget jt314:= [[-95.0194, -44.9791, 35.157, -77.8979, 53.0426, -76.3275], [109.786, 9E+9, 9E+9, 9E+9, 9E+9, 9E+9]];
PERS jointtarget jt315:= [[-96.2033, -44.9484, 33.4228, -75.5607, 52.7212, -79.9188], [109.958, 9E+9, 9E+9, 9E+9, 9E+9, 9E+9]];
PERS jointtarget jt316:= [[-96.7715, -44.9687, 32.6254, -74.6696, 53.2678, -79.9377], [110.511, 9E+9, 9E+9, 9E+9, 9E+9, 9E+9]];
PERS jointtarget jt317:= [[-97.6824, -45.0041, 31.3169, -73.2766, 54.1396, -79.9513], [111.397, 9E+9, 9E+9, 9E+9, 9E+9, 9E+9]];
PERS jointtarget jt318:= [[-96.5138, -44.8626, 31.8975, -73.7399, 52.5617, -83.3676], [109.432, 9E+9, 9E+9, 9E+9, 9E+9, 9E+9]];
PERS jointtarget jt319:= [[-96.366, -44.8462, 31.9826, -73.7463, 52.3758, -83.7882], [109.217, 9E+9, 9E+9, 9E+9, 9E+9, 9E+9]];
PERS jointtarget jt320:= [[-96.3833, -44.8486, 31.9338, -73.4092, 52.4106, -83.9758], [109.295, 9E+9, 9E+9, 9E+9, 9E+9, 9E+9]];
PERS jointtarget jt321:= [[-97.021, -44.9059, 31.139, -72.7368, 54.2157, -83.9086], [110.359, 9E+9, 9E+9, 9E+9, 9E+9, 9E+9]];
PERS jointtarget jt322:= [[-96.8312, -44.9044, 31.4341, -73.7842, 54.1496, -83.61], [110.157, 9E+9, 9E+9, 9E+9, 9E+9, 9E+9]];
PERS jointtarget jt323:= [[-96.7987, -44.9118, 31.4632, -73.922, 54.2874, -83.7564], [110.204, 9E+9, 9E+9, 9E+9, 9E+9, 9E+9]];
PERS jointtarget jt324:= [[-96.1314, -44.8742, 31.5686, -73.8819, 54.1836, -83.7982], [109.733, 9E+9, 9E+9, 9E+9, 9E+9, 9E+9]];
PERS jointtarget jt325:= [[-96.1994, -44.8708, 30.8771, -73.1272, 55.657, -83.445], [110.087, 9E+9, 9E+9, 9E+9, 9E+9, 9E+9]];
PERS jointtarget jt326:= [[-95.6733, -44.8323, 31.4578, -73.7961, 54.8199, -83.6508], [109.463, 9E+9, 9E+9, 9E+9, 9E+9, 9E+9]];
PERS jointtarget jt327:= [[-94.6166, -44.7707, 32.8061, -75.5816, 52.9327, -84.1386], [108.197, 9E+9, 9E+9, 9E+9, 9E+9, 9E+9]];
PERS jointtarget jt328:= [[-96.3565, -44.8857, 31.0416, -73.7841, 55.6154, -84.07], [110.252, 9E+9, 9E+9, 9E+9, 9E+9, 9E+9]];
PERS jointtarget jt329:= [[-95.4955, -44.8295, 31.7549, -74.3101, 54.1682, -84.5412], [109.133, 9E+9, 9E+9, 9E+9, 9E+9, 9E+9]];
PERS jointtarget jt330:= [[-96.2881, -44.8799, 31.1461, -74.126, 55.8334, -83.6796], [110.147, 9E+9, 9E+9, 9E+9, 9E+9, 9E+9]];
PERS jointtarget jt331:= [[-97.2954, -44.9551, 30.3637, -73.8725, 57.8807, -82.635], [111.42, 9E+9, 9E+9, 9E+9, 9E+9, 9E+9]];
PERS jointtarget jt332:= [[-94.6543, -44.7747, 32.7584, -75.7621, 53.1866, -84.1234], [108.232, 9E+9, 9E+9, 9E+9, 9E+9, 9E+9]];
PERS jointtarget jt333:= [[-94.8705, -44.8065, 32.8391, -76.2131, 53.9671, -83.3198], [108.626, 9E+9, 9E+9, 9E+9, 9E+9, 9E+9]];
PERS jointtarget jt334:= [[-95.2252, -44.8826, 33.3185, -77.9238, 54.936, -82.0232], [109.37, 9E+9, 9E+9, 9E+9, 9E+9, 9E+9]];
PERS jointtarget jt335:= [[-95.3262, -44.8755, 32.9609, -77.1007, 54.9558, -81.934], [109.503, 9E+9, 9E+9, 9E+9, 9E+9, 9E+9]];
PERS jointtarget jt336:= [[-94.6379, -44.8156, 33.2313, -76.7454, 53.5401, -82.4471], [108.539, 9E+9, 9E+9, 9E+9, 9E+9, 9E+9]];
PERS jointtarget jt337:= [[-94.9509, -44.8488, 33.0784, -76.8092, 54.1888, -82.1789], [109.065, 9E+9, 9E+9, 9E+9, 9E+9, 9E+9]];
PERS jointtarget jt338:= [[-96.1852, -44.9569, 31.9678, -75.8549, 56.5645, -82.0946], [110.752, 9E+9, 9E+9, 9E+9, 9E+9, 9E+9]];
PERS jointtarget jt339:= [[-96.2653, -44.9597, 31.8389, -75.6836, 56.742, -82.1164], [110.831, 9E+9, 9E+9, 9E+9, 9E+9, 9E+9]];
PERS jointtarget jt340:= [[-95.8455, -44.9244, 32.1072, -75.714, 55.9913, -81.6479], [110.265, 9E+9, 9E+9, 9E+9, 9E+9, 9E+9]];
PERS jointtarget jt341:= [[-94.8635, -44.8545, 33.0339, -76.48, 54.3715, -81.9836], [109.051, 9E+9, 9E+9, 9E+9, 9E+9, 9E+9]];
PERS jointtarget jt342:= [[-96.1798, -44.9747, 32.158, -76.1783, 56.6333, -81.1897], [110.912, 9E+9, 9E+9, 9E+9, 9E+9, 9E+9]];
PERS jointtarget jt343:= [[-94.9431, -44.8597, 33.0454, -76.5912, 54.7899, -82.1102], [109.194, 9E+9, 9E+9, 9E+9, 9E+9, 9E+9]];
PERS jointtarget jt344:= [[-94.3355, -44.8045, 33.4644, -76.7935, 53.6751, -82.2534], [108.405, 9E+9, 9E+9, 9E+9, 9E+9, 9E+9]];
PERS jointtarget jt345:= [[-94.5699, -44.8363, 33.34, -76.7585, 54.0301, -82.3387], [108.778, 9E+9, 9E+9, 9E+9, 9E+9, 9E+9]];
PERS jointtarget jt346:= [[-95.7193, -44.9405, 32.7, -76.8033, 56.2467, -80.937], [110.289, 9E+9, 9E+9, 9E+9, 9E+9, 9E+9]];
PERS jointtarget jt347:= [[-94.7171, -44.8497, 33.3911, -76.9946, 54.5374, -81.5116], [108.966, 9E+9, 9E+9, 9E+9, 9E+9, 9E+9]];
PERS jointtarget jt348:= [[-94.9091, -44.875, 33.5015, -77.0773, 54.4545, -81.194], [109.304, 9E+9, 9E+9, 9E+9, 9E+9, 9E+9]];
PERS jointtarget jt349:= [[-94.766, -44.8594, 33.5837, -76.9007, 53.4777, -80.9849], [108.932, 9E+9, 9E+9, 9E+9, 9E+9, 9E+9]];
PERS jointtarget jt350:= [[-95.2027, -44.8826, 33.0645, -76.2036, 54.22, -81.1168], [109.437, 9E+9, 9E+9, 9E+9, 9E+9, 9E+9]];
PERS jointtarget jt351:= [[-95.6919, -44.9099, 32.475, -75.4212, 55.0687, -81.2679], [109.999, 9E+9, 9E+9, 9E+9, 9E+9, 9E+9]];
PERS jointtarget jt352:= [[-95.3938, -44.8919, 32.8001, -75.7037, 54.644, -81.2056], [109.686, 9E+9, 9E+9, 9E+9, 9E+9, 9E+9]];
PERS jointtarget jt353:= [[-94.4289, -44.8321, 33.8797, -76.872, 53.1486, -81.0008], [108.598, 9E+9, 9E+9, 9E+9, 9E+9, 9E+9]];
PERS jointtarget jt354:= [[-94.1971, -44.8054, 33.9483, -76.5663, 52.8451, -82.0391], [108.214, 9E+9, 9E+9, 9E+9, 9E+9, 9E+9]];
PERS jointtarget jt355:= [[-95.1877, -44.8811, 33.1865, -76.0538, 54.4991, -81.2489], [109.49, 9E+9, 9E+9, 9E+9, 9E+9, 9E+9]];
PERS jointtarget jt356:= [[-95.4757, -44.9211, 33.0211, -76.0497, 54.7615, -80.406], [109.855, 9E+9, 9E+9, 9E+9, 9E+9, 9E+9]];
PERS jointtarget jt357:= [[-95.0655, -44.8833, 33.4781, -76.5568, 53.9398, -80.1819], [109.266, 9E+9, 9E+9, 9E+9, 9E+9, 9E+9]];
PERS jointtarget jt358:= [[-95.1093, -44.8859, 33.5466, -76.7682, 53.8709, -79.991], [109.285, 9E+9, 9E+9, 9E+9, 9E+9, 9E+9]];
PERS jointtarget jt359:= [[-95.2831, -44.8959, 33.4653, -76.8436, 53.9659, -79.915], [109.464, 9E+9, 9E+9, 9E+9, 9E+9, 9E+9]];
PERS jointtarget jt360:= [[-95.6739, -44.9043, 32.9739, -76.217, 54.13, -80.2973], [109.768, 9E+9, 9E+9, 9E+9, 9E+9, 9E+9]];
PERS jointtarget jt361:= [[-95.0512, -44.8346, 33.3938, -76.4832, 52.6573, -80.8985], [108.669, 9E+9, 9E+9, 9E+9, 9E+9, 9E+9]];
PERS jointtarget jt362:= [[-96.5868, -44.9096, 31.5254, -74.3844, 55.1198, -81.8247], [110.218, 9E+9, 9E+9, 9E+9, 9E+9, 9E+9]];
PERS jointtarget jt363:= [[-96.8089, -44.9052, 31.0404, -73.6959, 55.6671, -81.9456], [110.362, 9E+9, 9E+9, 9E+9, 9E+9, 9E+9]];
PERS jointtarget jt364:= [[-97.0428, -44.9087, 30.7694, -73.498, 55.8097, -81.5191], [110.482, 9E+9, 9E+9, 9E+9, 9E+9, 9E+9]];
PERS jointtarget jt365:= [[-96.7214, -44.9232, 31.7304, -75.0607, 55.1099, -81.8307], [110.324, 9E+9, 9E+9, 9E+9, 9E+9, 9E+9]];
PERS jointtarget jt366:= [[-96.6585, -44.9155, 31.6441, -74.467, 54.6454, -82.5009], [110.293, 9E+9, 9E+9, 9E+9, 9E+9, 9E+9]];
PERS jointtarget jt367:= [[-96.3586, -44.869, 31.5782, -73.6492, 54.0458, -83.7658], [109.662, 9E+9, 9E+9, 9E+9, 9E+9, 9E+9]];
PERS jointtarget jt368:= [[-96.1039, -44.8372, 31.6741, -73.64, 53.5105, -83.4609], [109.256, 9E+9, 9E+9, 9E+9, 9E+9, 9E+9]];
PERS jointtarget jt369:= [[-96.4858, -44.8672, 31.3456, -73.4878, 54.1223, -83.8106], [109.811, 9E+9, 9E+9, 9E+9, 9E+9, 9E+9]];
PERS jointtarget jt370:= [[-95.7746, -44.8005, 31.8487, -73.5231, 52.9021, -85.3817], [108.758, 9E+9, 9E+9, 9E+9, 9E+9, 9E+9]];
PERS jointtarget jt371:= [[-95.9978, -44.8262, 31.8492, -73.8946, 53.4208, -84.162], [109.134, 9E+9, 9E+9, 9E+9, 9E+9, 9E+9]];
PERS jointtarget jt372:= [[-96.3133, -44.8492, 31.6323, -73.7202, 53.9615, -84.1782], [109.499, 9E+9, 9E+9, 9E+9, 9E+9, 9E+9]];
PERS jointtarget jt373:= [[-96.0598, -44.8383, 31.8428, -73.8333, 53.5493, -84.4629], [109.258, 9E+9, 9E+9, 9E+9, 9E+9, 9E+9]];
PERS jointtarget jt374:= [[-97.3655, -44.9439, 30.8971, -73.4915, 56.1141, -83.343], [110.994, 9E+9, 9E+9, 9E+9, 9E+9, 9E+9]];
PERS jointtarget jt375:= [[-97.2094, -44.9233, 30.86, -73.1758, 55.7528, -83.4647], [110.738, 9E+9, 9E+9, 9E+9, 9E+9, 9E+9]];
PERS jointtarget jt376:= [[-96.3187, -44.8459, 31.2919, -72.79, 53.9249, -84.0558], [109.504, 9E+9, 9E+9, 9E+9, 9E+9, 9E+9]];
PERS jointtarget jt377:= [[-96.3136, -44.8594, 31.6033, -73.453, 54.0028, -83.7495], [109.629, 9E+9, 9E+9, 9E+9, 9E+9, 9E+9]];
PERS jointtarget jt378:= [[-96.2054, -44.8573, 31.7937, -73.7233, 53.8324, -84.1884], [109.515, 9E+9, 9E+9, 9E+9, 9E+9, 9E+9]];
PERS jointtarget jt379:= [[-96.113, -44.8574, 31.9664, -73.9528, 53.9855, -83.6403], [109.517, 9E+9, 9E+9, 9E+9, 9E+9, 9E+9]];
PERS jointtarget jt380:= [[-96.2708, -44.8748, 31.8833, -73.9801, 54.3248, -83.3684], [109.739, 9E+9, 9E+9, 9E+9, 9E+9, 9E+9]];
PERS jointtarget jt381:= [[-96.4674, -44.8909, 31.5807, -73.3098, 54.4861, -83.5783], [110.017, 9E+9, 9E+9, 9E+9, 9E+9, 9E+9]];
PERS jointtarget jt382:= [[-96.3415, -44.8899, 31.7635, -73.562, 54.2753, -83.6006], [109.902, 9E+9, 9E+9, 9E+9, 9E+9, 9E+9]];
PERS jointtarget jt383:= [[-96.3763, -44.8746, 31.46, -72.9136, 54.382, -83.7007], [109.794, 9E+9, 9E+9, 9E+9, 9E+9, 9E+9]];
PERS jointtarget jt384:= [[-96.5558, -44.8679, 31.0143, -72.1139, 54.7079, -83.7302], [109.874, 9E+9, 9E+9, 9E+9, 9E+9, 9E+9]];
PERS jointtarget jt385:= [[-95.5205, -44.8445, 32.7075, -74.7878, 53.246, -83.4885], [109.067, 9E+9, 9E+9, 9E+9, 9E+9, 9E+9]];
PERS jointtarget jt386:= [[-95.8674, -44.8653, 32.311, -74.3548, 53.7381, -83.534], [109.434, 9E+9, 9E+9, 9E+9, 9E+9, 9E+9]];
PERS jointtarget jt387:= [[-96.5006, -44.915, 31.8618, -74.3072, 54.8219, -83.9291], [110.172, 9E+9, 9E+9, 9E+9, 9E+9, 9E+9]];
PERS jointtarget jt388:= [[-95.9813, -44.8819, 32.3081, -74.7074, 54.2099, -83.7521], [109.624, 9E+9, 9E+9, 9E+9, 9E+9, 9E+9]];
PERS jointtarget jt389:= [[-95.6193, -44.916, 32.8243, -74.836, 54.5097, -81.9728], [109.859, 9E+9, 9E+9, 9E+9, 9E+9, 9E+9]];
PERS jointtarget jt390:= [[-95.5905, -45.0921, 33.7429, -75.3247, 57.3596, -77.1374], [112.098, 9E+9, 9E+9, 9E+9, 9E+9, 9E+9]];
PERS jointtarget jt391:= [[-98.5033, -45.3943, 30.6001, -71.6131, 62.4087, -75.8994], [116.355, 9E+9, 9E+9, 9E+9, 9E+9, 9E+9]];
PERS jointtarget jt392:= [[-98.1722, -45.3462, 30.8834, -71.7239, 61.9937, -76.0135], [115.992, 9E+9, 9E+9, 9E+9, 9E+9, 9E+9]];
PERS jointtarget jt393:= [[-90.024, -44.6486, 37.7369, -75.6248, 50.8149, -79.1301], [106.134, 9E+9, 9E+9, 9E+9, 9E+9, 9E+9]];
PERS jointtarget jt394:= [[-96.3888, -44.5483, 21.6877, -44.6719, 60.2024, -100.766], [109.143, 9E+9, 9E+9, 9E+9, 9E+9, 9E+9]];
PERS jointtarget jt395:= [[-95.5419, -44.2678, 19.7742, -37.2136, 61.4449, -115.047], [104.432, 9E+9, 9E+9, 9E+9, 9E+9, 9E+9]];
PERS jointtarget jt396:= [[0.0, 0.0, 0.0, 0.0, 0.0, 0.0], [0.0, 9E+9, 9E+9, 9E+9, 9E+9, 9E+9]];
PERS jointtarget jt397:= [[-96.3082, -43.1046, 7.34885, -14.1329, 73.0925, -127.475], [98.2373, 9E+9, 9E+9, 9E+9, 9E+9, 9E+9]];
PERS jointtarget jt398:= [[0.0, 0.0, 0.0, 0.0, 0.0, 0.0], [0.0, 9E+9, 9E+9, 9E+9, 9E+9, 9E+9]];
PERS jointtarget jt399:= [[-84.5333, -45.4038, 33.2081, -60.1311, 59.0175, -82.5787], [105.508, 9E+9, 9E+9, 9E+9, 9E+9, 9E+9]];
PERS jointtarget jt400:= [[-113.682, -100.412, 12.6309, -52.8251, 90.9678, -78.4073], [114.279, 9E+9, 9E+9, 9E+9, 9E+9, 9E+9]];
PERS jointtarget jt401:= [[-102.616, -83.3337, 35.3826, -71.8778, 61.9444, -104.637], [117.525, 9E+9, 9E+9, 9E+9, 9E+9, 9E+9]];
PERS jointtarget jt402:= [[-89.4495, -45.7613, 48.6932, -95.3039, 25.0224, -122.027], [97.0102, 9E+9, 9E+9, 9E+9, 9E+9, 9E+9]];
PERS jointtarget jt403:= [[-92.6425, -59.4944, 49.5598, -114.783, 17.4036, -91.4712], [96.504, 9E+9, 9E+9, 9E+9, 9E+9, 9E+9]];
PERS jointtarget jt404:= [[-94.2949, -67.8008, 48.8947, -126.515, 12.8127, -73.0624], [95.8104, 9E+9, 9E+9, 9E+9, 9E+9, 9E+9]];
PERS jointtarget jt405:= [[-96.8285, -82.3084, 46.1244, -145.774, 5.26748, -42.8044], [94.7844, 9E+9, 9E+9, 9E+9, 9E+9, 9E+9]];
PERS jointtarget jt406:= [[-104.609, -45.7126, 36.8141, -83.7138, 49.0135, -61.2873], [116.096, 9E+9, 9E+9, 9E+9, 9E+9, 9E+9]];
PERS jointtarget jt407:= [[-107.745, -45.8683, 36.1446, -86.9821, 50.3945, -58.353], [118.277, 9E+9, 9E+9, 9E+9, 9E+9, 9E+9]];
PERS jointtarget jt408:= [[-108.981, -46.3296, 38.8812, -89.8368, 52.6082, -53.8705], [121.794, 9E+9, 9E+9, 9E+9, 9E+9, 9E+9]];
PERS jointtarget jt409:= [[-108.981, -46.3296, 38.8812, -89.8368, 52.6082, -53.8705], [121.794, 9E+9, 9E+9, 9E+9, 9E+9, 9E+9]];
PERS jointtarget jt410:= [[-110.248, -46.9488, 41.1439, -92.3391, 54.5022, -50.0152], [124.933, 9E+9, 9E+9, 9E+9, 9E+9, 9E+9]];
PERS jointtarget jt411:= [[-110.208, -46.9022, 41.0019, -92.3779, 54.3099, -50.2304], [124.749, 9E+9, 9E+9, 9E+9, 9E+9, 9E+9]];
PERS jointtarget jt412:= [[-109.783, -46.5054, 39.6414, -92.3748, 52.7961, -52.2199], [122.984, 9E+9, 9E+9, 9E+9, 9E+9, 9E+9]];
PERS jointtarget jt413:= [[-109.371, -46.1472, 37.8221, -92.385, 50.8722, -54.7689], [120.842, 9E+9, 9E+9, 9E+9, 9E+9, 9E+9]];
PERS jointtarget jt414:= [[-109.301, -45.9738, 36.3518, -92.7305, 49.2376, -57.3471], [119.271, 9E+9, 9E+9, 9E+9, 9E+9, 9E+9]];
PERS jointtarget jt415:= [[-109.335, -45.9613, 36.4097, -93.027, 49.2024, -57.6868], [119.177, 9E+9, 9E+9, 9E+9, 9E+9, 9E+9]];
PERS jointtarget jt416:= [[-106.587, -45.5864, 40.3056, -100.997, 50.6037, -59.0255], [114.325, 9E+9, 9E+9, 9E+9, 9E+9, 9E+9]];
PERS jointtarget jt417:= [[-107.694, -45.6093, 36.8871, -95.7843, 42.287, -59.0491], [115.504, 9E+9, 9E+9, 9E+9, 9E+9, 9E+9]];
PERS jointtarget jt418:= [[-107.417, -45.5488, 39.4292, -100.628, 49.5394, -60.4331], [114.277, 9E+9, 9E+9, 9E+9, 9E+9, 9E+9]];
PERS jointtarget jt419:= [[-107.527, -45.3353, 35.8154, -93.0343, 43.658, -65.2733], [113.242, 9E+9, 9E+9, 9E+9, 9E+9, 9E+9]];
PERS jointtarget jt420:= [[-108.837, -45.1754, 31.6745, -82.3862, 41.6181, -75.0752], [113.007, 9E+9, 9E+9, 9E+9, 9E+9, 9E+9]];
PERS jointtarget jt421:= [[-108.126, -51.5841, 24.5073, 34.5256, 22.9337, 25.0464], [90.7184, 9E+9, 9E+9, 9E+9, 9E+9, 9E+9]];
PERS jointtarget jt422:= [[-109.595, -49.1461, 20.6491, 7.47424, 26.8648, 3.35504], [95.8285, 9E+9, 9E+9, 9E+9, 9E+9, 9E+9]];
PERS jointtarget jt423:= [[-110.212, -48.6929, 19.5548, -5.7121, 28.7813, -7.21762], [98.8169, 9E+9, 9E+9, 9E+9, 9E+9, 9E+9]];
PERS jointtarget jt424:= [[-111.322, -48.4921, 20.1285, -38.2422, 33.51, -33.3017], [106.574, 9E+9, 9E+9, 9E+9, 9E+9, 9E+9]];
PERS jointtarget jt425:= [[-111.876, -47.6896, 24.3478, -64.4937, 37.3268, -54.3504], [112.09, 9E+9, 9E+9, 9E+9, 9E+9, 9E+9]];
PERS jointtarget jt426:= [[-112.188, -45.9946, 28.7297, -82.0697, 39.8854, -68.4407], [114.842, 9E+9, 9E+9, 9E+9, 9E+9, 9E+9]];
PERS jointtarget jt427:= [[-112.177, -45.3113, 30.1518, -86.8674, 40.5106, -72.1458], [115.332, 9E+9, 9E+9, 9E+9, 9E+9, 9E+9]];
PERS jointtarget jt428:= [[-111.401, -45.2779, 30.7921, -87.5664, 39.9707, -71.4333], [114.659, 9E+9, 9E+9, 9E+9, 9E+9, 9E+9]];
PERS jointtarget jt429:= [[-111.279, -45.2601, 30.6377, -86.5233, 39.5017, -72.6565], [114.474, 9E+9, 9E+9, 9E+9, 9E+9, 9E+9]];
PERS jointtarget jt430:= [[-111.485, -45.274, 30.4069, -86.0387, 39.7479, -72.9281], [114.78, 9E+9, 9E+9, 9E+9, 9E+9, 9E+9]];
PERS jointtarget jt431:= [[-114.062, -45.4745, 28.815, -86.0036, 44.9855, -69.3244], [118.792, 9E+9, 9E+9, 9E+9, 9E+9, 9E+9]];
PERS jointtarget jt432:= [[-115.004, -45.5952, 28.2248, -85.9967, 46.7781, -68.0743], [120.227, 9E+9, 9E+9, 9E+9, 9E+9, 9E+9]];
PERS jointtarget jt433:= [[-115.013, -45.6062, 28.204, -86.0553, 46.8715, -67.7988], [120.278, 9E+9, 9E+9, 9E+9, 9E+9, 9E+9]];
PERS jointtarget jt434:= [[-114.726, -45.5925, 28.3208, -86.2688, 46.5909, -67.1293], [119.967, 9E+9, 9E+9, 9E+9, 9E+9, 9E+9]];
PERS jointtarget jt435:= [[-114.878, -45.5817, 28.0987, -85.8268, 46.7303, -67.9606], [120.086, 9E+9, 9E+9, 9E+9, 9E+9, 9E+9]];
PERS jointtarget jt436:= [[-114.768, -45.5552, 28.1384, -85.7632, 46.4979, -68.235], [119.886, 9E+9, 9E+9, 9E+9, 9E+9, 9E+9]];
PERS jointtarget jt437:= [[-112.238, -45.2802, 29.4613, -85.5035, 41.2775, -71.7003], [115.907, 9E+9, 9E+9, 9E+9, 9E+9, 9E+9]];
PERS jointtarget jt438:= [[-110.467, -45.165, 30.0757, -84.0428, 38.8569, -75.1292], [113.595, 9E+9, 9E+9, 9E+9, 9E+9, 9E+9]];
PERS jointtarget jt439:= [[-108.533, -45.1047, 30.7342, -81.7149, 39.1397, -77.9177], [112.471, 9E+9, 9E+9, 9E+9, 9E+9, 9E+9]];
PERS jointtarget jt440:= [[-107.598, -45.1414, 31.7499, -83.1169, 39.9375, -75.3258], [112.49, 9E+9, 9E+9, 9E+9, 9E+9, 9E+9]];
PERS jointtarget jt441:= [[-107.272, -45.1433, 32.0847, -83.3512, 40.1564, -75.1231], [112.465, 9E+9, 9E+9, 9E+9, 9E+9, 9E+9]];
PERS jointtarget jt442:= [[-107.124, -45.1368, 32.0895, -83.1128, 39.8115, -75.1703], [112.286, 9E+9, 9E+9, 9E+9, 9E+9, 9E+9]];
PERS jointtarget jt443:= [[-109.727, -45.4167, 30.3128, -82.4836, 46.9879, -72.5655], [116.846, 9E+9, 9E+9, 9E+9, 9E+9, 9E+9]];
PERS jointtarget jt444:= [[-110.122, -45.4716, 30.054, -82.4296, 47.9904, -72.21], [117.494, 9E+9, 9E+9, 9E+9, 9E+9, 9E+9]];
PERS jointtarget jt445:= [[-107.477, -45.1867, 31.5871, -82.4297, 42.5777, -73.0768], [113.759, 9E+9, 9E+9, 9E+9, 9E+9, 9E+9]];
PERS jointtarget jt446:= [[-105.992, -45.0756, 32.4362, -82.4412, 39.2909, -73.6454], [111.518, 9E+9, 9E+9, 9E+9, 9E+9, 9E+9]];
PERS jointtarget jt447:= [[-105.038, -45.0415, 33.276, -83.5069, 38.8757, -72.8435], [110.732, 9E+9, 9E+9, 9E+9, 9E+9, 9E+9]];
PERS jointtarget jt448:= [[-107.575, -45.2958, 31.6545, -82.5886, 44.7926, -71.5246], [114.766, 9E+9, 9E+9, 9E+9, 9E+9, 9E+9]];
PERS jointtarget jt449:= [[-108.675, -45.4478, 31.1475, -82.6745, 46.7938, -70.173], [116.437, 9E+9, 9E+9, 9E+9, 9E+9, 9E+9]];
PERS jointtarget jt450:= [[-109.096, -45.4873, 31.0566, -82.9873, 47.4247, -69.7137], [117.069, 9E+9, 9E+9, 9E+9, 9E+9, 9E+9]];
PERS jointtarget jt451:= [[-105.34, -45.0744, 34.0709, -87.0334, 36.7264, -68.0019], [111.214, 9E+9, 9E+9, 9E+9, 9E+9, 9E+9]];
PERS jointtarget jt452:= [[-104.696, -45.0227, 34.3466, -86.8968, 35.3227, -69.236], [110.06, 9E+9, 9E+9, 9E+9, 9E+9, 9E+9]];
PERS jointtarget jt453:= [[-105.39, -45.0866, 33.194, -83.3942, 39.5331, -74.0329], [111.244, 9E+9, 9E+9, 9E+9, 9E+9, 9E+9]];
PERS jointtarget jt454:= [[-106.353, -45.177, 32.6067, -83.1281, 41.8532, -73.3134], [112.829, 9E+9, 9E+9, 9E+9, 9E+9, 9E+9]];
PERS jointtarget jt455:= [[-108.288, -45.3767, 31.5225, -83.0499, 46.059, -71.1993], [115.849, 9E+9, 9E+9, 9E+9, 9E+9, 9E+9]];
PERS jointtarget jt456:= [[-109.053, -45.4942, 31.1032, -83.0863, 47.6306, -70.3264], [117.009, 9E+9, 9E+9, 9E+9, 9E+9, 9E+9]];
PERS jointtarget jt457:= [[-109.322, -45.5131, 31.1296, -84.0213, 47.7166, -68.5171], [117.304, 9E+9, 9E+9, 9E+9, 9E+9, 9E+9]];
PERS jointtarget jt458:= [[-108.61, -45.3983, 31.4587, -83.7418, 46.2993, -69.8545], [116.167, 9E+9, 9E+9, 9E+9, 9E+9, 9E+9]];
PERS jointtarget jt459:= [[-106.06, -45.1293, 32.6509, -82.6516, 41.0017, -74.9704], [112.044, 9E+9, 9E+9, 9E+9, 9E+9, 9E+9]];
PERS jointtarget jt460:= [[-105.684, -45.0719, 32.7985, -82.6545, 39.5539, -73.4766], [111.241, 9E+9, 9E+9, 9E+9, 9E+9, 9E+9]];
PERS jointtarget jt461:= [[-105.613, -45.0468, 32.7525, -82.4341, 39.0343, -73.1676], [110.994, 9E+9, 9E+9, 9E+9, 9E+9, 9E+9]];
PERS jointtarget jt462:= [[-105.523, -45.0229, 32.5244, -81.0947, 38.7403, -76.6976], [110.721, 9E+9, 9E+9, 9E+9, 9E+9, 9E+9]];
PERS jointtarget jt463:= [[-105.421, -45.0188, 32.9876, -82.8019, 38.1655, -73.6145], [110.535, 9E+9, 9E+9, 9E+9, 9E+9, 9E+9]];
PERS jointtarget jt464:= [[-105.529, -45.0404, 33.0815, -83.2771, 38.3156, -72.891], [110.73, 9E+9, 9E+9, 9E+9, 9E+9, 9E+9]];
PERS jointtarget jt465:= [[-105.925, -45.0491, 32.4498, -81.4761, 38.7468, -75.9704], [111.065, 9E+9, 9E+9, 9E+9, 9E+9, 9E+9]];
PERS jointtarget jt466:= [[-106.102, -45.0761, 32.6225, -82.2962, 39.1371, -75.0452], [111.379, 9E+9, 9E+9, 9E+9, 9E+9, 9E+9]];
PERS jointtarget jt467:= [[-106.053, -45.059, 32.6082, -82.3332, 39.3961, -76.388], [111.213, 9E+9, 9E+9, 9E+9, 9E+9, 9E+9]];
PERS jointtarget jt468:= [[-106.447, -45.0754, 32.272, -81.965, 39.5615, -76.1583], [111.49, 9E+9, 9E+9, 9E+9, 9E+9, 9E+9]];
PERS jointtarget jt469:= [[-106.468, -45.0958, 32.4623, -82.5205, 40.2562, -76.079], [111.684, 9E+9, 9E+9, 9E+9, 9E+9, 9E+9]];
PERS jointtarget jt470:= [[-106.701, -45.1268, 32.2866, -82.3299, 40.9063, -76.0062], [112.165, 9E+9, 9E+9, 9E+9, 9E+9, 9E+9]];
PERS jointtarget jt471:= [[-110.622, -45.5386, 29.9868, -82.2152, 48.7931, -71.6862], [118.301, 9E+9, 9E+9, 9E+9, 9E+9, 9E+9]];
PERS jointtarget jt472:= [[-106.494, -45.0817, 32.0862, -81.1635, 39.0117, -76.526], [111.669, 9E+9, 9E+9, 9E+9, 9E+9, 9E+9]];
PERS jointtarget jt473:= [[-106.319, -45.0659, 32.1834, -81.1273, 38.559, -76.7402], [111.359, 9E+9, 9E+9, 9E+9, 9E+9, 9E+9]];
PERS jointtarget jt474:= [[-106.342, -45.0825, 32.5208, -82.2584, 38.919, -75.3365], [111.466, 9E+9, 9E+9, 9E+9, 9E+9, 9E+9]];
PERS jointtarget jt475:= [[-106.136, -45.066, 32.646, -82.3274, 38.6878, -75.3004], [111.182, 9E+9, 9E+9, 9E+9, 9E+9, 9E+9]];
PERS jointtarget jt476:= [[-106.129, -45.0703, 32.6988, -82.4784, 38.8148, -74.893], [111.224, 9E+9, 9E+9, 9E+9, 9E+9, 9E+9]];
PERS jointtarget jt477:= [[-106.563, -45.1284, 32.567, -82.7454, 40.1022, -73.4575], [112.036, 9E+9, 9E+9, 9E+9, 9E+9, 9E+9]];
PERS jointtarget jt478:= [[-109.083, -45.3829, 31.1912, -82.9339, 45.3043, -70.3073], [115.918, 9E+9, 9E+9, 9E+9, 9E+9, 9E+9]];
PERS jointtarget jt479:= [[-108.896, -45.3562, 31.3723, -83.1414, 44.7996, -70.3836], [115.611, 9E+9, 9E+9, 9E+9, 9E+9, 9E+9]];
PERS jointtarget jt480:= [[-107.165, -45.1834, 32.5024, -83.609, 40.8274, -72.1624], [112.904, 9E+9, 9E+9, 9E+9, 9E+9, 9E+9]];
PERS jointtarget jt481:= [[-106.24, -45.088, 33.0608, -83.7721, 38.865, -73.395], [111.36, 9E+9, 9E+9, 9E+9, 9E+9, 9E+9]];
PERS jointtarget jt482:= [[-106.295, -45.0768, 32.9319, -83.3602, 39.0121, -74.5397], [111.285, 9E+9, 9E+9, 9E+9, 9E+9, 9E+9]];
PERS jointtarget jt483:= [[-106.475, -45.0871, 32.6509, -82.5379, 38.6464, -74.8628], [111.38, 9E+9, 9E+9, 9E+9, 9E+9, 9E+9]];
PERS jointtarget jt484:= [[-106.602, -45.1187, 33.0776, -84.4755, 39.4555, -73.1061], [111.748, 9E+9, 9E+9, 9E+9, 9E+9, 9E+9]];
PERS jointtarget jt485:= [[-106.599, -45.1176, 33.0426, -84.2965, 39.4193, -73.3398], [111.727, 9E+9, 9E+9, 9E+9, 9E+9, 9E+9]];
PERS jointtarget jt486:= [[-106.475, -45.0953, 32.9059, -83.5595, 38.7674, -73.2816], [111.413, 9E+9, 9E+9, 9E+9, 9E+9, 9E+9]];
PERS jointtarget jt487:= [[-106.828, -45.1332, 32.7756, -83.5706, 39.7808, -73.4981], [112.062, 9E+9, 9E+9, 9E+9, 9E+9, 9E+9]];
PERS jointtarget jt488:= [[-106.744, -45.1322, 32.9189, -83.9165, 39.6343, -73.2854], [111.969, 9E+9, 9E+9, 9E+9, 9E+9, 9E+9]];
PERS jointtarget jt489:= [[-106.317, -45.0994, 33.4175, -85.037, 38.7181, -72.5212], [111.345, 9E+9, 9E+9, 9E+9, 9E+9, 9E+9]];
PERS jointtarget jt490:= [[-106.281, -45.0831, 33.3212, -84.5117, 38.5319, -73.2346], [111.196, 9E+9, 9E+9, 9E+9, 9E+9, 9E+9]];
PERS jointtarget jt491:= [[-106.287, -45.0801, 33.316, -84.4009, 38.2283, -73.0209], [111.157, 9E+9, 9E+9, 9E+9, 9E+9, 9E+9]];
PERS jointtarget jt492:= [[-106.437, -45.0834, 32.9816, -83.3585, 38.3669, -74.2141], [111.292, 9E+9, 9E+9, 9E+9, 9E+9, 9E+9]];
PERS jointtarget jt493:= [[-106.403, -45.098, 33.195, -84.1147, 38.6365, -72.8782], [111.363, 9E+9, 9E+9, 9E+9, 9E+9, 9E+9]];
PERS jointtarget jt494:= [[-106.577, -45.1177, 33.1016, -84.0732, 39.02, -72.9937], [111.603, 9E+9, 9E+9, 9E+9, 9E+9, 9E+9]];
PERS jointtarget jt495:= [[-107.237, -45.1697, 32.8551, -84.2147, 40.4636, -74.1343], [112.44, 9E+9, 9E+9, 9E+9, 9E+9, 9E+9]];
PERS jointtarget jt496:= [[-107.109, -45.1394, 32.7229, -83.5335, 39.727, -74.0225], [112.1, 9E+9, 9E+9, 9E+9, 9E+9, 9E+9]];
PERS jointtarget jt497:= [[-106.96, -45.1394, 33.1978, -84.7689, 39.1759, -73.5782], [111.939, 9E+9, 9E+9, 9E+9, 9E+9, 9E+9]];
PERS jointtarget jt498:= [[-106.921, -45.1215, 32.973, -83.9897, 38.4816, -72.0685], [111.736, 9E+9, 9E+9, 9E+9, 9E+9, 9E+9]];
PERS jointtarget jt499:= [[-106.932, -45.1835, 33.6619, -86.3963, 39.6986, -71.5109], [112.28, 9E+9, 9E+9, 9E+9, 9E+9, 9E+9]];
PERS jointtarget jt500:= [[-106.694, -45.197, 34.026, -87.5773, 40.0288, -69.7735], [112.276, 9E+9, 9E+9, 9E+9, 9E+9, 9E+9]];
PERS jointtarget jt501:= [[-106.16, -45.2024, 35.4658, -91.8275, 39.2398, -64.7641], [111.895, 9E+9, 9E+9, 9E+9, 9E+9, 9E+9]];
PERS jointtarget jt502:= [[-106.148, -45.2421, 36.124, -94.1235, 41.0262, -63.696], [112.219, 9E+9, 9E+9, 9E+9, 9E+9, 9E+9]];
PERS jointtarget jt503:= [[-115.824, -46.3008, 33.5827, -96.8815, 60.4566, -50.7573], [127.35, 9E+9, 9E+9, 9E+9, 9E+9, 9E+9]];
PERS jointtarget jt504:= [[-117.521, -46.8155, 33.5716, -98.2318, 63.966, -47.6851], [129.699, 9E+9, 9E+9, 9E+9, 9E+9, 9E+9]];
PERS jointtarget jt505:= [[-115.05, -46.6487, 36.4552, -102.001, 61.9869, -45.8128], [126.375, 9E+9, 9E+9, 9E+9, 9E+9, 9E+9]];
PERS jointtarget jt506:= [[-111.093, -46.2024, 40.1023, -106.992, 57.8618, -43.277], [120.746, 9E+9, 9E+9, 9E+9, 9E+9, 9E+9]];
PERS jointtarget jt507:= [[-108.318, -45.7995, 41.3749, -108.933, 53.181, -42.2941], [116.605, 9E+9, 9E+9, 9E+9, 9E+9, 9E+9]];
PERS jointtarget jt508:= [[-107.914, -45.7403, 41.8132, -109.867, 52.8202, -41.5488], [115.975, 9E+9, 9E+9, 9E+9, 9E+9, 9E+9]];
PERS jointtarget jt509:= [[-110.885, -46.1315, 41.436, -110.037, 58.9081, -40.5649], [120.373, 9E+9, 9E+9, 9E+9, 9E+9, 9E+9]];
PERS jointtarget jt510:= [[-112.949, -46.6441, 42.0412, -112.724, 64.0936, -39.6077], [123.02, 9E+9, 9E+9, 9E+9, 9E+9, 9E+9]];
PERS jointtarget jt511:= [[-113.481, -46.7287, 42.2173, -113.208, 65.6609, -39.8741], [123.606, 9E+9, 9E+9, 9E+9, 9E+9, 9E+9]];
PERS jointtarget jt512:= [[-112.608, -46.5851, 40.7383, -109.806, 62.4356, -41.5607], [123.09, 9E+9, 9E+9, 9E+9, 9E+9, 9E+9]];
PERS jointtarget jt513:= [[-105.908, -45.4712, 43.2313, -110.61, 53.2673, -49.5805], [113.198, 9E+9, 9E+9, 9E+9, 9E+9, 9E+9]];
PERS jointtarget jt514:= [[-109.473, -45.995, 40.2351, -105.98, 56.505, -46.6414], [119.056, 9E+9, 9E+9, 9E+9, 9E+9, 9E+9]];
PERS jointtarget jt515:= [[-110.989, -46.2759, 38.9207, -104.251, 57.9026, -45.4199], [121.471, 9E+9, 9E+9, 9E+9, 9E+9, 9E+9]];
PERS jointtarget jt516:= [[-103.963, -45.2174, 42.3537, -106.427, 49.7558, -55.7042], [110.679, 9E+9, 9E+9, 9E+9, 9E+9, 9E+9]];
PERS jointtarget jt517:= [[-104.668, -45.3684, 41.0117, -105.534, 47.6036, -46.2711], [112.279, 9E+9, 9E+9, 9E+9, 9E+9, 9E+9]];
PERS jointtarget jt518:= [[-108.213, -45.906, 39.8895, -104.792, 52.9828, -48.2763], [117.576, 9E+9, 9E+9, 9E+9, 9E+9, 9E+9]];
PERS jointtarget jt519:= [[-109.98, -46.0446, 37.317, -99.7734, 54.9352, -49.1872], [119.993, 9E+9, 9E+9, 9E+9, 9E+9, 9E+9]];
PERS jointtarget jt520:= [[-104.821, -45.3256, 41.2644, -104.113, 50.0256, -55.6148], [111.992, 9E+9, 9E+9, 9E+9, 9E+9, 9E+9]];
PERS jointtarget jt521:= [[-105.089, -45.3744, 39.6984, -102.511, 44.8913, -53.2767], [112.612, 9E+9, 9E+9, 9E+9, 9E+9, 9E+9]];
PERS jointtarget jt522:= [[-104.918, -45.3433, 41.3744, -104.773, 50.074, -55.3526], [112.11, 9E+9, 9E+9, 9E+9, 9E+9, 9E+9]];
PERS jointtarget jt523:= [[-108.757, -45.9143, 38.1074, -101.03, 51.9561, -51.2702], [118.207, 9E+9, 9E+9, 9E+9, 9E+9, 9E+9]];
PERS jointtarget jt524:= [[-105.577, -45.4104, 40.9918, -104.525, 50.6293, -54.9322], [112.983, 9E+9, 9E+9, 9E+9, 9E+9, 9E+9]];
PERS jointtarget jt525:= [[-106.459, -45.5407, 39.3731, -101.604, 49.6508, -54.8022], [114.422, 9E+9, 9E+9, 9E+9, 9E+9, 9E+9]];
PERS jointtarget jt526:= [[-106.552, -45.5539, 39.2313, -101.504, 49.5339, -54.404], [114.551, 9E+9, 9E+9, 9E+9, 9E+9, 9E+9]];
PERS jointtarget jt527:= [[-105.127, -45.3619, 41.0213, -104.433, 49.8167, -54.9581], [112.193, 9E+9, 9E+9, 9E+9, 9E+9, 9E+9]];
PERS jointtarget jt528:= [[-109.4, -45.9476, 37.8353, -100.987, 52.9591, -51.0358], [118.882, 9E+9, 9E+9, 9E+9, 9E+9, 9E+9]];
PERS jointtarget jt529:= [[-104.8, -45.2795, 39.2427, -102.011, 42.4711, -52.8064], [111.781, 9E+9, 9E+9, 9E+9, 9E+9, 9E+9]];
PERS jointtarget jt530:= [[-104.712, -45.2832, 40.9104, -103.627, 48.7514, -57.0264], [111.499, 9E+9, 9E+9, 9E+9, 9E+9, 9E+9]];
PERS jointtarget jt531:= [[-106.203, -45.5225, 40.5185, -104.314, 50.3024, -52.9869], [114.067, 9E+9, 9E+9, 9E+9, 9E+9, 9E+9]];
PERS jointtarget jt532:= [[-108.603, -45.8686, 38.7749, -102.477, 52.1087, -51.1474], [117.809, 9E+9, 9E+9, 9E+9, 9E+9, 9E+9]];
PERS jointtarget jt533:= [[-108.648, -45.8717, 38.7696, -102.424, 52.2465, -51.2579], [117.879, 9E+9, 9E+9, 9E+9, 9E+9, 9E+9]];
PERS jointtarget jt534:= [[-105.138, -45.3678, 41.5114, -105.042, 50.3387, -55.1425], [112.434, 9E+9, 9E+9, 9E+9, 9E+9, 9E+9]];
PERS jointtarget jt535:= [[-104.426, -45.2855, 41.9328, -105.402, 49.7727, -55.9667], [111.322, 9E+9, 9E+9, 9E+9, 9E+9, 9E+9]];
PERS jointtarget jt536:= [[-103.956, -45.1983, 39.6092, -100.057, 43.4973, -57.53], [110.814, 9E+9, 9E+9, 9E+9, 9E+9, 9E+9]];
PERS jointtarget jt537:= [[-103.921, -45.1884, 39.2426, -99.077, 42.7931, -56.9942], [110.678, 9E+9, 9E+9, 9E+9, 9E+9, 9E+9]];
PERS jointtarget jt538:= [[-104.219, -45.2464, 41.0971, -103.191, 47.4396, -58.1513], [111.069, 9E+9, 9E+9, 9E+9, 9E+9, 9E+9]];
PERS jointtarget jt539:= [[-104.244, -45.2445, 41.1802, -103.236, 47.8081, -58.4393], [111.08, 9E+9, 9E+9, 9E+9, 9E+9, 9E+9]];
PERS jointtarget jt540:= [[-104.861, -45.3328, 41.0293, -103.164, 49.0633, -56.8109], [111.957, 9E+9, 9E+9, 9E+9, 9E+9, 9E+9]];
PERS jointtarget jt541:= [[-105.095, -45.3748, 41.217, -103.826, 49.8237, -55.4378], [112.306, 9E+9, 9E+9, 9E+9, 9E+9, 9E+9]];
PERS jointtarget jt542:= [[-104.836, -45.3465, 41.2618, -103.648, 49.6359, -55.9687], [111.989, 9E+9, 9E+9, 9E+9, 9E+9, 9E+9]];
PERS jointtarget jt543:= [[-104.256, -45.2669, 40.3126, -101.375, 46.2318, -56.7848], [111.233, 9E+9, 9E+9, 9E+9, 9E+9, 9E+9]];
PERS jointtarget jt544:= [[-103.758, -45.1543, 39.1743, -98.5877, 42.0382, -57.6328], [110.429, 9E+9, 9E+9, 9E+9, 9E+9, 9E+9]];
PERS jointtarget jt545:= [[-104.08, -45.2353, 39.9281, -100.4, 44.7897, -57.0769], [110.953, 9E+9, 9E+9, 9E+9, 9E+9, 9E+9]];
PERS jointtarget jt546:= [[-104.567, -45.3053, 41.1824, -103.131, 48.7164, -57.1558], [111.65, 9E+9, 9E+9, 9E+9, 9E+9, 9E+9]];
PERS jointtarget jt547:= [[-104.684, -45.3321, 41.2812, -103.549, 48.9988, -56.2243], [111.865, 9E+9, 9E+9, 9E+9, 9E+9, 9E+9]];
PERS jointtarget jt548:= [[-104.378, -45.2771, 41.302, -102.985, 48.9254, -57.8725], [111.345, 9E+9, 9E+9, 9E+9, 9E+9, 9E+9]];
PERS jointtarget jt549:= [[-104.377, -45.2858, 41.485, -103.719, 48.6642, -57.1185], [111.407, 9E+9, 9E+9, 9E+9, 9E+9, 9E+9]];
PERS jointtarget jt550:= [[-104.36, -45.2756, 41.2509, -102.914, 48.7658, -57.8612], [111.354, 9E+9, 9E+9, 9E+9, 9E+9, 9E+9]];
PERS jointtarget jt551:= [[-104.438, -45.2801, 41.5582, -103.747, 49.1714, -58.004], [111.316, 9E+9, 9E+9, 9E+9, 9E+9, 9E+9]];
PERS jointtarget jt552:= [[-105.623, -45.4325, 40.6385, -102.799, 49.5893, -56.2529], [113.164, 9E+9, 9E+9, 9E+9, 9E+9, 9E+9]];
PERS jointtarget jt553:= [[-107.824, -45.7275, 39.234, -101.651, 51.4707, -53.5696], [116.623, 9E+9, 9E+9, 9E+9, 9E+9, 9E+9]];
PERS jointtarget jt554:= [[-109.317, -45.9946, 38.2001, -100.867, 52.646, -51.7747], [118.965, 9E+9, 9E+9, 9E+9, 9E+9, 9E+9]];
PERS jointtarget jt555:= [[-108.566, -45.8891, 38.1831, -100.218, 50.8392, -52.6454], [117.971, 9E+9, 9E+9, 9E+9, 9E+9, 9E+9]];
PERS jointtarget jt556:= [[-107.711, -45.7824, 38.1842, -99.4772, 48.7781, -53.6751], [116.802, 9E+9, 9E+9, 9E+9, 9E+9, 9E+9]];
PERS jointtarget jt557:= [[-108.496, -45.8713, 37.8719, -99.1343, 50.8508, -53.2319], [117.944, 9E+9, 9E+9, 9E+9, 9E+9, 9E+9]];
PERS jointtarget jt558:= [[-109.599, -46.0187, 37.4518, -98.7767, 53.6103, -52.5895], [119.492, 9E+9, 9E+9, 9E+9, 9E+9, 9E+9]];
PERS jointtarget jt559:= [[-109.79, -46.0746, 38.0357, -100.396, 53.9211, -52.6178], [119.755, 9E+9, 9E+9, 9E+9, 9E+9, 9E+9]];
PERS jointtarget jt560:= [[-108.972, -45.9891, 38.404, -100.354, 52.6137, -52.2663], [118.677, 9E+9, 9E+9, 9E+9, 9E+9, 9E+9]];
PERS jointtarget jt561:= [[-108.841, -45.9999, 39.205, -102.292, 52.9296, -51.3911], [118.517, 9E+9, 9E+9, 9E+9, 9E+9, 9E+9]];
PERS jointtarget jt562:= [[-108.872, -46.0147, 39.3457, -102.526, 52.9515, -51.4627], [118.616, 9E+9, 9E+9, 9E+9, 9E+9, 9E+9]];
PERS jointtarget jt563:= [[-108.818, -46.0182, 39.1417, -101.723, 52.8559, -51.4613], [118.681, 9E+9, 9E+9, 9E+9, 9E+9, 9E+9]];
PERS jointtarget jt564:= [[-108.718, -46.0006, 38.8025, -100.458, 52.5229, -52.3183], [118.604, 9E+9, 9E+9, 9E+9, 9E+9, 9E+9]];
PERS jointtarget jt565:= [[-108.857, -46.0197, 38.8483, -100.644, 52.7564, -52.3692], [118.808, 9E+9, 9E+9, 9E+9, 9E+9, 9E+9]];
PERS jointtarget jt566:= [[-109.017, -46.0477, 38.8, -100.46, 53.1757, -51.9704], [119.059, 9E+9, 9E+9, 9E+9, 9E+9, 9E+9]];
PERS jointtarget jt567:= [[-107.814, -45.9393, 40.1394, -102.81, 51.9353, -51.9], [117.611, 9E+9, 9E+9, 9E+9, 9E+9, 9E+9]];
PERS jointtarget jt568:= [[-107.836, -45.9542, 39.8642, -101.97, 52.0708, -52.4864], [117.818, 9E+9, 9E+9, 9E+9, 9E+9, 9E+9]];
PERS jointtarget jt569:= [[-108.52, -46.0414, 38.9896, -100.064, 53.1755, -53.3204], [118.936, 9E+9, 9E+9, 9E+9, 9E+9, 9E+9]];
PERS jointtarget jt570:= [[-107.664, -45.9678, 38.4543, -97.7023, 53.2238, -54.8295], [118.454, 9E+9, 9E+9, 9E+9, 9E+9, 9E+9]];
PERS jointtarget jt571:= [[-107.278, -45.9428, 38.6173, -97.838, 53.0519, -55.3355], [118.136, 9E+9, 9E+9, 9E+9, 9E+9, 9E+9]];
PERS jointtarget jt572:= [[-106.558, -45.7778, 37.7425, -96.5824, 51.5522, -54.8524], [117.022, 9E+9, 9E+9, 9E+9, 9E+9, 9E+9]];
PERS jointtarget jt573:= [[-107.201, -45.8147, 37.0995, -95.842, 52.2959, -53.1626], [117.669, 9E+9, 9E+9, 9E+9, 9E+9, 9E+9]];
PERS jointtarget jt574:= [[-107.85, -45.8944, 36.932, -96.0787, 53.2126, -52.2408], [118.327, 9E+9, 9E+9, 9E+9, 9E+9, 9E+9]];
PERS jointtarget jt575:= [[-108.753, -46.0397, 38.0532, -99.3047, 55.1332, -53.9704], [119.321, 9E+9, 9E+9, 9E+9, 9E+9, 9E+9]];
PERS jointtarget jt576:= [[-108.708, -45.9879, 37.3098, -97.4315, 54.3916, -55.1156], [119.21, 9E+9, 9E+9, 9E+9, 9E+9, 9E+9]];
PERS jointtarget jt577:= [[-108.244, -45.9453, 37.8577, -98.0548, 52.9189, -53.8176], [118.511, 9E+9, 9E+9, 9E+9, 9E+9, 9E+9]];
PERS jointtarget jt578:= [[-108.536, -45.992, 37.7464, -97.7385, 53.9083, -52.8468], [119.071, 9E+9, 9E+9, 9E+9, 9E+9, 9E+9]];
PERS jointtarget jt579:= [[-108.647, -45.9563, 36.7351, -96.2249, 54.3008, -52.7436], [119.092, 9E+9, 9E+9, 9E+9, 9E+9, 9E+9]];
PERS jointtarget jt580:= [[-108.181, -45.9963, 38.3978, -100.31, 54.8346, -51.9801], [118.793, 9E+9, 9E+9, 9E+9, 9E+9, 9E+9]];
PERS jointtarget jt581:= [[-108.33, -46.0389, 38.7516, -101.759, 55.9737, -49.5186], [119.067, 9E+9, 9E+9, 9E+9, 9E+9, 9E+9]];
PERS jointtarget jt582:= [[-108.927, -46.1597, 39.2887, -103.284, 58.5871, -47.8021], [120.028, 9E+9, 9E+9, 9E+9, 9E+9, 9E+9]];
PERS jointtarget jt583:= [[-109.101, -46.164, 38.6438, -102.145, 58.0629, -48.2483], [120.255, 9E+9, 9E+9, 9E+9, 9E+9, 9E+9]];
PERS jointtarget jt584:= [[-107.581, -46.0058, 40.2108, -104.832, 56.1707, -48.452], [118.397, 9E+9, 9E+9, 9E+9, 9E+9, 9E+9]];
PERS jointtarget jt585:= [[-108.938, -46.1957, 39.4963, -103.976, 58.5532, -47.6618], [120.243, 9E+9, 9E+9, 9E+9, 9E+9, 9E+9]];
PERS jointtarget jt586:= [[-108.333, -45.9862, 38.4036, -101.362, 56.0175, -49.0038], [119.136, 9E+9, 9E+9, 9E+9, 9E+9, 9E+9]];
PERS jointtarget jt587:= [[-107.711, -45.8298, 38.7595, -101.94, 54.9109, -48.1179], [118.259, 9E+9, 9E+9, 9E+9, 9E+9, 9E+9]];
PERS jointtarget jt588:= [[-104.632, -45.1977, 40.3559, -105.016, 49.0326, -43.4226], [113.744, 9E+9, 9E+9, 9E+9, 9E+9, 9E+9]];
PERS jointtarget jt589:= [[-99.998, -44.6298, 42.1356, -110.387, 38.7463, -35.2186], [106.157, 9E+9, 9E+9, 9E+9, 9E+9, 9E+9]];
PERS jointtarget jt590:= [[-100.403, -44.7429, 41.5986, -108.481, 39.0989, -38.2156], [106.897, 9E+9, 9E+9, 9E+9, 9E+9, 9E+9]];
PERS jointtarget jt591:= [[-101.79, -44.9251, 40.6772, -105.346, 41.8003, -43.0701], [109.271, 9E+9, 9E+9, 9E+9, 9E+9, 9E+9]];
PERS jointtarget jt592:= [[-105.946, -45.6185, 37.3381, -96.8634, 49.0877, -56.2055], [115.827, 9E+9, 9E+9, 9E+9, 9E+9, 9E+9]];
PERS jointtarget jt593:= [[-106.536, -45.8917, 38.9924, -100.041, 54.1255, -53.6804], [117.664, 9E+9, 9E+9, 9E+9, 9E+9, 9E+9]];
PERS jointtarget jt594:= [[-105.973, -45.8353, 39.5759, -100.594, 53.5863, -53.179], [116.892, 9E+9, 9E+9, 9E+9, 9E+9, 9E+9]];
PERS jointtarget jt595:= [[-105.734, -45.8034, 40.1004, -101.992, 53.3187, -52.1065], [116.402, 9E+9, 9E+9, 9E+9, 9E+9, 9E+9]];
PERS jointtarget jt596:= [[-107.703, -46.1013, 39.3824, -101.699, 57.3663, -47.4286], [119.361, 9E+9, 9E+9, 9E+9, 9E+9, 9E+9]];
PERS jointtarget jt597:= [[-107.752, -46.1351, 39.9762, -103.257, 58.0442, -47.1713], [119.395, 9E+9, 9E+9, 9E+9, 9E+9, 9E+9]];
PERS jointtarget jt598:= [[-108.973, -46.3426, 40.9297, -106.284, 61.6695, -44.2412], [120.895, 9E+9, 9E+9, 9E+9, 9E+9, 9E+9]];
PERS jointtarget jt599:= [[-108.52, -46.2751, 41.1679, -106.659, 59.9906, -44.8372], [120.118, 9E+9, 9E+9, 9E+9, 9E+9, 9E+9]];
PERS jointtarget jt600:= [[-110.367, -46.346, 38.3207, -102.319, 60.9677, -42.6778], [122.057, 9E+9, 9E+9, 9E+9, 9E+9, 9E+9]];
PERS jointtarget jt601:= [[-112.337, -46.5626, 38.4634, -104.666, 64.581, -41.2051], [124.027, 9E+9, 9E+9, 9E+9, 9E+9, 9E+9]];
PERS jointtarget jt602:= [[-111.502, -46.4649, 40.2612, -108.857, 62.3637, -43.5852], [122.307, 9E+9, 9E+9, 9E+9, 9E+9, 9E+9]];
PERS jointtarget jt603:= [[-111.403, -46.431, 40.0014, -108.344, 61.6906, -43.9484], [122.119, 9E+9, 9E+9, 9E+9, 9E+9, 9E+9]];
PERS jointtarget jt604:= [[-109.72, -46.1328, 39.7855, -107.258, 56.9237, -46.287], [119.804, 9E+9, 9E+9, 9E+9, 9E+9, 9E+9]];
PERS jointtarget jt605:= [[-108.463, -45.9748, 40.0404, -107.256, 53.9142, -47.7409], [118.099, 9E+9, 9E+9, 9E+9, 9E+9, 9E+9]];
PERS jointtarget jt606:= [[-109.571, -46.096, 39.3622, -105.996, 56.1729, -46.8581], [119.638, 9E+9, 9E+9, 9E+9, 9E+9, 9E+9]];
PERS jointtarget jt607:= [[-110.423, -46.221, 38.7917, -104.993, 57.8752, -46.2202], [120.836, 9E+9, 9E+9, 9E+9, 9E+9, 9E+9]];
PERS jointtarget jt608:= [[-109.922, -46.2292, 39.1371, -104.028, 57.9037, -47.8793], [120.805, 9E+9, 9E+9, 9E+9, 9E+9, 9E+9]];
PERS jointtarget jt609:= [[-107.261, -45.9456, 40.5868, -105.823, 53.8136, -49.0763], [117.544, 9E+9, 9E+9, 9E+9, 9E+9, 9E+9]];
PERS jointtarget jt610:= [[-107.298, -45.9553, 40.631, -105.877, 54.1168, -48.7193], [117.648, 9E+9, 9E+9, 9E+9, 9E+9, 9E+9]];
PERS jointtarget jt611:= [[-107.489, -45.9746, 39.984, -104.354, 54.0937, -48.9601], [118.037, 9E+9, 9E+9, 9E+9, 9E+9, 9E+9]];
PERS jointtarget jt612:= [[-107.428, -45.9559, 39.9252, -104.176, 53.8615, -49.1085], [117.939, 9E+9, 9E+9, 9E+9, 9E+9, 9E+9]];
PERS jointtarget jt613:= [[-108.308, -46.0132, 39.12, -102.993, 55.0785, -47.7616], [118.825, 9E+9, 9E+9, 9E+9, 9E+9, 9E+9]];
PERS jointtarget jt614:= [[-109.611, -46.1249, 37.4733, -99.8883, 57.2952, -47.0552], [120.501, 9E+9, 9E+9, 9E+9, 9E+9, 9E+9]];
PERS jointtarget jt615:= [[-109.386, -46.0914, 37.9293, -100.692, 56.6946, -48.0925], [120.071, 9E+9, 9E+9, 9E+9, 9E+9, 9E+9]];
PERS jointtarget jt616:= [[-107.919, -45.9736, 39.8084, -103.844, 54.0639, -51.1979], [118.051, 9E+9, 9E+9, 9E+9, 9E+9, 9E+9]];
PERS jointtarget jt617:= [[-109.52, -46.2098, 39.275, -103.526, 57.9426, -47.1288], [120.448, 9E+9, 9E+9, 9E+9, 9E+9, 9E+9]];
PERS jointtarget jt618:= [[-109.598, -46.2255, 39.1328, -103.139, 58.0867, -47.2678], [120.594, 9E+9, 9E+9, 9E+9, 9E+9, 9E+9]];
PERS jointtarget jt619:= [[-108.312, -46.081, 40.416, -104.839, 56.2481, -48.9301], [118.938, 9E+9, 9E+9, 9E+9, 9E+9, 9E+9]];
PERS jointtarget jt620:= [[-107.203, -45.9496, 40.7818, -105.198, 53.5957, -49.9425], [117.473, 9E+9, 9E+9, 9E+9, 9E+9, 9E+9]];
PERS jointtarget jt621:= [[-108.481, -46.1009, 39.9982, -103.901, 56.271, -48.6519], [119.281, 9E+9, 9E+9, 9E+9, 9E+9, 9E+9]];
PERS jointtarget jt622:= [[-108.322, -46.0852, 40.0685, -103.894, 55.854, -49.7545], [119.072, 9E+9, 9E+9, 9E+9, 9E+9, 9E+9]];
PERS jointtarget jt623:= [[-109.033, -46.1649, 39.483, -103.164, 57.1833, -48.3591], [120.04, 9E+9, 9E+9, 9E+9, 9E+9, 9E+9]];
PERS jointtarget jt624:= [[-108.78, -46.1561, 39.4162, -102.567, 57.153, -48.1917], [119.838, 9E+9, 9E+9, 9E+9, 9E+9, 9E+9]];
PERS jointtarget jt625:= [[-108.6, -46.156, 39.8269, -103.223, 57.2251, -49.0257], [119.648, 9E+9, 9E+9, 9E+9, 9E+9, 9E+9]];
PERS jointtarget jt626:= [[-108.385, -46.0566, 40.2813, -104.254, 57.222, -45.8238], [119.538, 9E+9, 9E+9, 9E+9, 9E+9, 9E+9]];
PERS jointtarget jt627:= [[-99.7329, -44.7755, 44.6527, -114.524, 42.8956, -29.039], [106.604, 9E+9, 9E+9, 9E+9, 9E+9, 9E+9]];
PERS jointtarget jt628:= [[-105.582, -45.516, 41.6603, -106.428, 52.6721, -41.3255], [115.689, 9E+9, 9E+9, 9E+9, 9E+9, 9E+9]];
PERS jointtarget jt629:= [[-108.498, -46.1377, 39.7497, -102.814, 57.0501, -46.8344], [119.851, 9E+9, 9E+9, 9E+9, 9E+9, 9E+9]];
PERS jointtarget jt630:= [[-108.588, -46.1825, 39.7215, -102.676, 57.2395, -47.7925], [119.973, 9E+9, 9E+9, 9E+9, 9E+9, 9E+9]];
PERS jointtarget jt631:= [[-107.953, -46.1221, 40.2921, -103.366, 56.4898, -49.6293], [119.106, 9E+9, 9E+9, 9E+9, 9E+9, 9E+9]];
PERS jointtarget jt632:= [[-108.102, -46.1385, 40.0907, -102.653, 57.0388, -50.4648], [119.434, 9E+9, 9E+9, 9E+9, 9E+9, 9E+9]];
PERS jointtarget jt633:= [[-105.962, -45.847, 40.9089, -103.713, 51.9547, -51.4629], [116.55, 9E+9, 9E+9, 9E+9, 9E+9, 9E+9]];
PERS jointtarget jt634:= [[-105.929, -45.8407, 40.7732, -103.374, 51.8174, -51.5448], [116.515, 9E+9, 9E+9, 9E+9, 9E+9, 9E+9]];
PERS jointtarget jt635:= [[-106.665, -45.9188, 40.1427, -102.09, 53.4927, -51.3681], [117.541, 9E+9, 9E+9, 9E+9, 9E+9, 9E+9]];
PERS jointtarget jt636:= [[-108.283, -46.0994, 38.6905, -99.3972, 57.0007, -50.9967], [119.715, 9E+9, 9E+9, 9E+9, 9E+9, 9E+9]];
PERS jointtarget jt637:= [[-108.477, -46.201, 39.7428, -102.007, 58.0186, -48.7607], [120.021, 9E+9, 9E+9, 9E+9, 9E+9, 9E+9]];
PERS jointtarget jt638:= [[-108.14, -46.1779, 40.2455, -102.83, 57.4087, -48.8798], [119.703, 9E+9, 9E+9, 9E+9, 9E+9, 9E+9]];
PERS jointtarget jt639:= [[-107.694, -46.103, 40.2722, -102.699, 56.0854, -49.9291], [118.967, 9E+9, 9E+9, 9E+9, 9E+9, 9E+9]];
PERS jointtarget jt640:= [[-107.83, -46.1032, 39.899, -102.123, 56.0606, -48.3805], [119.157, 9E+9, 9E+9, 9E+9, 9E+9, 9E+9]];
PERS jointtarget jt641:= [[-107.595, -46.0833, 40.1776, -102.568, 55.9765, -48.215], [118.843, 9E+9, 9E+9, 9E+9, 9E+9, 9E+9]];
PERS jointtarget jt642:= [[-107.456, -46.0736, 40.3235, -102.74, 56.0637, -47.7589], [118.692, 9E+9, 9E+9, 9E+9, 9E+9, 9E+9]];
PERS jointtarget jt643:= [[-108.142, -46.1538, 39.9616, -102.384, 56.9194, -47.8574], [119.595, 9E+9, 9E+9, 9E+9, 9E+9, 9E+9]];
PERS jointtarget jt644:= [[-107.422, -46.0389, 40.1059, -102.312, 55.6172, -48.0441], [118.627, 9E+9, 9E+9, 9E+9, 9E+9, 9E+9]];
PERS jointtarget jt645:= [[-106.031, -45.8406, 40.4589, -102.407, 51.9253, -51.4596], [116.618, 9E+9, 9E+9, 9E+9, 9E+9, 9E+9]];
PERS jointtarget jt646:= [[-105.933, -45.8198, 40.5128, -102.447, 51.6771, -52.4542], [116.404, 9E+9, 9E+9, 9E+9, 9E+9, 9E+9]];
PERS jointtarget jt647:= [[-107.002, -45.9646, 40.3251, -102.455, 54.5156, -51.8024], [117.814, 9E+9, 9E+9, 9E+9, 9E+9, 9E+9]];
PERS jointtarget jt648:= [[-108.264, -46.1054, 39.5149, -101.772, 56.1224, -48.9868], [119.294, 9E+9, 9E+9, 9E+9, 9E+9, 9E+9]];
PERS jointtarget jt649:= [[-108.032, -46.0493, 39.4381, -101.565, 55.5663, -49.1633], [118.901, 9E+9, 9E+9, 9E+9, 9E+9, 9E+9]];
PERS jointtarget jt650:= [[-107.61, -46.0028, 39.7388, -102.159, 54.9131, -50.1533], [118.315, 9E+9, 9E+9, 9E+9, 9E+9, 9E+9]];
PERS jointtarget jt651:= [[-107.684, -46.0111, 39.6948, -102.03, 55.0839, -50.4074], [118.404, 9E+9, 9E+9, 9E+9, 9E+9, 9E+9]];
PERS jointtarget jt652:= [[-108.188, -46.0701, 39.4134, -101.501, 55.6184, -51.0077], [119.068, 9E+9, 9E+9, 9E+9, 9E+9, 9E+9]];
PERS jointtarget jt653:= [[-107.999, -46.0516, 39.5253, -101.45, 55.2767, -51.8346], [118.804, 9E+9, 9E+9, 9E+9, 9E+9, 9E+9]];
PERS jointtarget jt654:= [[-108.096, -46.0639, 39.4875, -101.456, 55.4951, -49.4842], [118.964, 9E+9, 9E+9, 9E+9, 9E+9, 9E+9]];
PERS jointtarget jt655:= [[-108.644, -46.1092, 38.8319, -100.376, 55.8483, -49.1042], [119.645, 9E+9, 9E+9, 9E+9, 9E+9, 9E+9]];
PERS jointtarget jt656:= [[-108.563, -46.102, 39.0122, -100.536, 55.7677, -51.7782], [119.464, 9E+9, 9E+9, 9E+9, 9E+9, 9E+9]];
PERS jointtarget jt657:= [[-108.733, -46.1214, 38.8536, -100.305, 55.9728, -52.0036], [119.684, 9E+9, 9E+9, 9E+9, 9E+9, 9E+9]];
PERS jointtarget jt658:= [[-108.917, -46.1187, 38.5143, -99.9203, 55.8864, -50.0013], [119.885, 9E+9, 9E+9, 9E+9, 9E+9, 9E+9]];
PERS jointtarget jt659:= [[-107.977, -46.0296, 39.4937, -101.2, 54.5278, -52.3744], [118.572, 9E+9, 9E+9, 9E+9, 9E+9, 9E+9]];
PERS jointtarget jt660:= [[-108.146, -46.056, 39.4937, -101.258, 54.9596, -51.9468], [118.854, 9E+9, 9E+9, 9E+9, 9E+9, 9E+9]];
PERS jointtarget jt661:= [[-108.418, -46.1298, 39.6283, -101.477, 55.8754, -51.3834], [119.404, 9E+9, 9E+9, 9E+9, 9E+9, 9E+9]];
PERS jointtarget jt662:= [[-109.468, -46.2173, 38.4312, -99.8225, 57.0091, -48.8525], [120.766, 9E+9, 9E+9, 9E+9, 9E+9, 9E+9]];
PERS jointtarget jt663:= [[-109.204, -46.2102, 39.1206, -100.98, 56.857, -50.999], [120.358, 9E+9, 9E+9, 9E+9, 9E+9, 9E+9]];
PERS jointtarget jt664:= [[-107.551, -46.0238, 40.0267, -102.02, 52.6886, -51.7604], [118.317, 9E+9, 9E+9, 9E+9, 9E+9, 9E+9]];
PERS jointtarget jt665:= [[-107.333, -45.9977, 40.0765, -102.074, 52.0091, -51.7416], [118.031, 9E+9, 9E+9, 9E+9, 9E+9, 9E+9]];
PERS jointtarget jt666:= [[-108.164, -46.0957, 39.8391, -101.872, 54.1774, -50.7032], [119.171, 9E+9, 9E+9, 9E+9, 9E+9, 9E+9]];
PERS jointtarget jt667:= [[-109.553, -46.2979, 39.5082, -101.728, 57.647, -49.0537], [120.956, 9E+9, 9E+9, 9E+9, 9E+9, 9E+9]];
PERS jointtarget jt668:= [[-109.732, -46.3265, 40.0144, -103.089, 58.3219, -48.2028], [121.044, 9E+9, 9E+9, 9E+9, 9E+9, 9E+9]];
PERS jointtarget jt669:= [[-109.63, -46.3045, 40.0553, -103.095, 58.1468, -48.5033], [120.883, 9E+9, 9E+9, 9E+9, 9E+9, 9E+9]];
PERS jointtarget jt670:= [[-108.83, -46.1926, 39.8259, -101.775, 56.2386, -51.4183], [119.844, 9E+9, 9E+9, 9E+9, 9E+9, 9E+9]];
PERS jointtarget jt671:= [[-108.85, -46.1847, 39.6267, -101.336, 56.1838, -51.8556], [119.909, 9E+9, 9E+9, 9E+9, 9E+9, 9E+9]];
PERS jointtarget jt672:= [[-109.205, -46.2221, 39.3545, -100.979, 56.6627, -51.7421], [120.365, 9E+9, 9E+9, 9E+9, 9E+9, 9E+9]];
PERS jointtarget jt673:= [[-109.136, -46.2053, 39.4194, -101.119, 56.4971, -51.4447], [120.182, 9E+9, 9E+9, 9E+9, 9E+9, 9E+9]];
PERS jointtarget jt674:= [[-109.132, -46.227, 39.9123, -102.218, 56.5564, -51.2788], [120.137, 9E+9, 9E+9, 9E+9, 9E+9, 9E+9]];
PERS jointtarget jt675:= [[-109.415, -46.2573, 39.7575, -101.905, 57.2578, -51.5881], [120.498, 9E+9, 9E+9, 9E+9, 9E+9, 9E+9]];
PERS jointtarget jt676:= [[-109.24, -46.227, 39.8399, -102.091, 57.1277, -50.8969], [120.252, 9E+9, 9E+9, 9E+9, 9E+9, 9E+9]];
PERS jointtarget jt677:= [[-108.519, -46.1512, 40.4438, -103.046, 56.1336, -51.146], [119.291, 9E+9, 9E+9, 9E+9, 9E+9, 9E+9]];
PERS jointtarget jt678:= [[-108.486, -46.149, 40.3333, -102.852, 55.8284, -50.4187], [119.293, 9E+9, 9E+9, 9E+9, 9E+9, 9E+9]];
PERS jointtarget jt679:= [[-109.008, -46.2074, 39.8923, -102.233, 56.6041, -49.2525], [120.053, 9E+9, 9E+9, 9E+9, 9E+9, 9E+9]];
PERS jointtarget jt680:= [[-108.777, -46.2132, 40.4363, -103.051, 56.9327, -51.0031], [119.811, 9E+9, 9E+9, 9E+9, 9E+9, 9E+9]];
PERS jointtarget jt681:= [[-108.987, -46.2382, 40.2767, -102.884, 57.2123, -50.6166], [120.099, 9E+9, 9E+9, 9E+9, 9E+9, 9E+9]];
PERS jointtarget jt682:= [[-110.056, -46.3469, 39.3258, -101.839, 58.4729, -48.2809], [121.516, 9E+9, 9E+9, 9E+9, 9E+9, 9E+9]];
PERS jointtarget jt683:= [[-109.924, -46.3124, 39.6202, -102.045, 58.3306, -50.9803], [121.022, 9E+9, 9E+9, 9E+9, 9E+9, 9E+9]];
PERS jointtarget jt684:= [[-109.717, -46.3099, 40.0383, -102.707, 57.8254, -50.9696], [120.851, 9E+9, 9E+9, 9E+9, 9E+9, 9E+9]];
PERS jointtarget jt685:= [[-109.378, -46.273, 40.3218, -103.201, 57.1863, -50.6128], [120.364, 9E+9, 9E+9, 9E+9, 9E+9, 9E+9]];
PERS jointtarget jt686:= [[-110.294, -46.3577, 39.4437, -101.774, 58.5249, -49.0734], [121.573, 9E+9, 9E+9, 9E+9, 9E+9, 9E+9]];
PERS jointtarget jt687:= [[-109.876, -46.3201, 39.7758, -102.042, 57.7192, -50.6203], [120.967, 9E+9, 9E+9, 9E+9, 9E+9, 9E+9]];
PERS jointtarget jt688:= [[-108.611, -46.1343, 40.1272, -102.131, 54.7298, -51.2449], [119.392, 9E+9, 9E+9, 9E+9, 9E+9, 9E+9]];
PERS jointtarget jt689:= [[-108.318, -46.1116, 40.2474, -102.064, 54.5948, -52.3162], [119.086, 9E+9, 9E+9, 9E+9, 9E+9, 9E+9]];
PERS jointtarget jt690:= [[-109.504, -46.2977, 39.5286, -100.843, 57.6416, -51.9967], [120.89, 9E+9, 9E+9, 9E+9, 9E+9, 9E+9]];
PERS jointtarget jt691:= [[-109.079, -46.2815, 38.772, -98.1837, 57.0689, -53.7595], [121.004, 9E+9, 9E+9, 9E+9, 9E+9, 9E+9]];
PERS jointtarget jt692:= [[-112.886, -79.1594, 11.0386, -59.8166, 87.4474, -93.4381], [115.842, 9E+9, 9E+9, 9E+9, 9E+9, 9E+9]];
PERS jointtarget jt693:= [[-114.835, -82.8883, 6.28925, -55.6093, 91.1026, -98.4956], [112.712, 9E+9, 9E+9, 9E+9, 9E+9, 9E+9]];
PERS jointtarget jt694:= [[-115.251, -83.5615, 5.32014, -54.7678, 91.8336, -99.5071], [112.044, 9E+9, 9E+9, 9E+9, 9E+9, 9E+9]];
PERS jointtarget jt695:= [[-115.675, -84.2104, 4.34548, -53.9263, 92.5647, -100.519], [111.362, 9E+9, 9E+9, 9E+9, 9E+9, 9E+9]];
PERS jointtarget jt696:= [[-116.545, -85.4359, 2.38108, -52.2434, 94.0267, -102.542], [109.957, 9E+9, 9E+9, 9E+9, 9E+9, 9E+9]];
PERS jointtarget jt697:= [[-117.443, -86.5656, 0.399033, -50.5604, 95.4888, -104.565], [108.5, 9E+9, 9E+9, 9E+9, 9E+9, 9E+9]];
PERS jointtarget jt698:= [[-129.098, -90.8901, -21.6821, -38.4439, 112.087, -117.674], [98.1721, 9E+9, 9E+9, 9E+9, 9E+9, 9E+9]];
PERS jointtarget jt699:= [[-125.936, -88.513, -17.8949, -39.8366, 107.65, -117.141], [100.454, 9E+9, 9E+9, 9E+9, 9E+9, 9E+9]];
PERS jointtarget jt700:= [[-117.723, -81.25, -6.65006, -44.3247, 95.5481, -115.849], [105.058, 9E+9, 9E+9, 9E+9, 9E+9, 9E+9]];
PERS jointtarget jt701:= [[-104.869, -64.8851, 9.32949, -51.5783, 75.9891, -113.755], [107.623, 9E+9, 9E+9, 9E+9, 9E+9, 9E+9]];
PERS jointtarget jt702:= [[-102.446, -61.3754, 11.9929, -52.9418, 72.3138, -113.362], [107.252, 9E+9, 9E+9, 9E+9, 9E+9, 9E+9]];
PERS jointtarget jt703:= [[-90.0084, -44.4118, 22.9062, -59.3591, 55.0043, -111.512], [101.063, 9E+9, 9E+9, 9E+9, 9E+9, 9E+9]];
PERS jointtarget jt704:= [[-91.4539, -44.1538, 21.7175, -61.0984, 55.6386, -110.252], [102.715, 9E+9, 9E+9, 9E+9, 9E+9, 9E+9]];
PERS jointtarget jt705:= [[-90.5528, -44.1293, 23.6438, -65.2382, 53.6227, -109.055], [101.338, 9E+9, 9E+9, 9E+9, 9E+9, 9E+9]];
PERS jointtarget jt706:= [[-89.8153, -44.072, 24.6209, -66.6157, 52.262, -108.366], [100.112, 9E+9, 9E+9, 9E+9, 9E+9, 9E+9]];
PERS jointtarget jt707:= [[-89.8599, -44.0563, 24.5699, -67.6826, 51.3122, -106.716], [99.6866, 9E+9, 9E+9, 9E+9, 9E+9, 9E+9]];
PERS jointtarget jt708:= [[-90.5968, -44.1066, 24.5659, -70.1217, 52.3274, -105.432], [100.961, 9E+9, 9E+9, 9E+9, 9E+9, 9E+9]];
PERS jointtarget jt709:= [[-88.9458, -43.9589, 25.0971, -67.4471, 48.8943, -107.467], [97.6486, 9E+9, 9E+9, 9E+9, 9E+9, 9E+9]];
PERS jointtarget jt710:= [[-90.3891, -44.0338, 24.2112, -67.3745, 50.9797, -108.53], [99.8381, 9E+9, 9E+9, 9E+9, 9E+9, 9E+9]];
PERS jointtarget jt711:= [[-90.9862, -44.0883, 23.7793, -66.5706, 51.5351, -109.492], [100.661, 9E+9, 9E+9, 9E+9, 9E+9, 9E+9]];
PERS jointtarget jt712:= [[-89.6304, -43.9886, 24.4532, -64.2286, 48.7917, -110.189], [98.2973, 9E+9, 9E+9, 9E+9, 9E+9, 9E+9]];
PERS jointtarget jt713:= [[-89.792, -43.9165, 23.0138, -56.7109, 46.9473, -115.541], [96.7575, 9E+9, 9E+9, 9E+9, 9E+9, 9E+9]];
PERS jointtarget jt714:= [[-92.4417, -44.0655, 22.0204, -59.3706, 51.4572, -111.923], [100.238, 9E+9, 9E+9, 9E+9, 9E+9, 9E+9]];
PERS jointtarget jt715:= [[-93.3919, -44.1224, 22.8511, -63.8925, 50.9909, -108.638], [101.249, 9E+9, 9E+9, 9E+9, 9E+9, 9E+9]];
PERS jointtarget jt716:= [[-93.5001, -44.1238, 22.9469, -64.2792, 50.8778, -108.289], [101.28, 9E+9, 9E+9, 9E+9, 9E+9, 9E+9]];
PERS jointtarget jt717:= [[-93.4268, -44.1657, 24.0158, -67.0209, 50.602, -105.854], [101.602, 9E+9, 9E+9, 9E+9, 9E+9, 9E+9]];
PERS jointtarget jt718:= [[-93.8148, -44.2283, 24.6331, -69.7753, 51.4731, -103.689], [102.81, 9E+9, 9E+9, 9E+9, 9E+9, 9E+9]];
PERS jointtarget jt719:= [[-94.669, -44.2914, 24.6545, -71.8183, 52.8852, -101.999], [104.318, 9E+9, 9E+9, 9E+9, 9E+9, 9E+9]];
PERS jointtarget jt720:= [[-93.6919, -44.2334, 25.6642, -72.8411, 51.2474, -101.186], [103.095, 9E+9, 9E+9, 9E+9, 9E+9, 9E+9]];
PERS jointtarget jt721:= [[-91.5678, -44.1353, 28.0141, -76.187, 47.9284, -98.1461], [100.412, 9E+9, 9E+9, 9E+9, 9E+9, 9E+9]];
PERS jointtarget jt722:= [[-91.4446, -44.1204, 28.335, -77.7997, 47.7314, -96.6629], [100.167, 9E+9, 9E+9, 9E+9, 9E+9, 9E+9]];
PERS jointtarget jt723:= [[-90.9815, -44.094, 29.1289, -79.9963, 46.8773, -94.3841], [99.4679, 9E+9, 9E+9, 9E+9, 9E+9, 9E+9]];
PERS jointtarget jt724:= [[-93.3218, -44.247, 27.2725, -79.1471, 51.2831, -93.8118], [102.593, 9E+9, 9E+9, 9E+9, 9E+9, 9E+9]];
PERS jointtarget jt725:= [[-91.1423, -44.0794, 28.7421, -79.6952, 46.6285, -93.977], [99.2808, 9E+9, 9E+9, 9E+9, 9E+9, 9E+9]];
PERS jointtarget jt726:= [[-91.1716, -44.0774, 28.7814, -79.8967, 46.4297, -93.9405], [99.2447, 9E+9, 9E+9, 9E+9, 9E+9, 9E+9]];
PERS jointtarget jt727:= [[-92.2179, -44.1397, 28.3282, -79.7298, 47.5729, -95.5712], [100.259, 9E+9, 9E+9, 9E+9, 9E+9, 9E+9]];
PERS jointtarget jt728:= [[-92.3054, -44.0828, 27.1479, -74.8716, 45.8505, -99.1504], [99.4406, 9E+9, 9E+9, 9E+9, 9E+9, 9E+9]];
PERS jointtarget jt729:= [[-93.1477, -44.1226, 26.9085, -74.8092, 47.1919, -99.321], [100.543, 9E+9, 9E+9, 9E+9, 9E+9, 9E+9]];
PERS jointtarget jt730:= [[-93.7164, -44.167, 26.7542, -75.1678, 48.3019, -99.2969], [101.422, 9E+9, 9E+9, 9E+9, 9E+9, 9E+9]];
PERS jointtarget jt731:= [[-94.0351, -44.1918, 25.7139, -71.3378, 47.952, -102.066], [101.445, 9E+9, 9E+9, 9E+9, 9E+9, 9E+9]];
PERS jointtarget jt732:= [[-93.8787, -44.1586, 25.4283, -69.808, 47.3238, -103.063], [101.011, 9E+9, 9E+9, 9E+9, 9E+9, 9E+9]];
PERS jointtarget jt733:= [[-94.5027, -44.1385, 24.0184, -65.6751, 47.6364, -105.334], [101.124, 9E+9, 9E+9, 9E+9, 9E+9, 9E+9]];
PERS jointtarget jt734:= [[-96.194, -44.2169, 22.9275, -65.5595, 50.0458, -105.898], [103.338, 9E+9, 9E+9, 9E+9, 9E+9, 9E+9]];
PERS jointtarget jt735:= [[-97.0604, -44.2582, 22.294, -65.3856, 51.1485, -106.321], [104.327, 9E+9, 9E+9, 9E+9, 9E+9, 9E+9]];
PERS jointtarget jt736:= [[-94.9393, -44.0852, 23.3362, -62.9164, 45.369, -108.029], [99.8726, 9E+9, 9E+9, 9E+9, 9E+9, 9E+9]];
PERS jointtarget jt737:= [[-95.252, -44.1086, 23.6292, -64.3555, 45.5097, -106.678], [100.481, 9E+9, 9E+9, 9E+9, 9E+9, 9E+9]];
PERS jointtarget jt738:= [[-95.778, -44.1553, 23.8657, -66.1119, 46.0183, -105.035], [101.458, 9E+9, 9E+9, 9E+9, 9E+9, 9E+9]];
PERS jointtarget jt739:= [[-96.3751, -44.25, 24.4671, -69.41, 46.9689, -102.056], [102.566, 9E+9, 9E+9, 9E+9, 9E+9, 9E+9]];
PERS jointtarget jt740:= [[-96.0053, -44.2542, 26.067, -74.1671, 46.6973, -98.1824], [102.717, 9E+9, 9E+9, 9E+9, 9E+9, 9E+9]];
PERS jointtarget jt741:= [[-95.3269, -44.2307, 26.7969, -75.6136, 45.7149, -97.0491], [101.918, 9E+9, 9E+9, 9E+9, 9E+9, 9E+9]];
PERS jointtarget jt742:= [[-95.9287, -44.2761, 26.7563, -76.8382, 47.0392, -96.2411], [102.964, 9E+9, 9E+9, 9E+9, 9E+9, 9E+9]];
PERS jointtarget jt743:= [[-95.3982, -44.2441, 27.3243, -77.7334, 46.3084, -95.7772], [102.099, 9E+9, 9E+9, 9E+9, 9E+9, 9E+9]];
PERS jointtarget jt744:= [[-95.136, -44.2317, 27.5479, -78.7058, 45.6409, -94.1384], [101.793, 9E+9, 9E+9, 9E+9, 9E+9, 9E+9]];
PERS jointtarget jt745:= [[-95.5059, -44.2499, 27.3758, -79.0173, 46.5944, -93.8572], [102.382, 9E+9, 9E+9, 9E+9, 9E+9, 9E+9]];
PERS jointtarget jt746:= [[-95.5236, -44.2617, 27.6762, -79.7963, 46.6162, -93.9177], [102.43, 9E+9, 9E+9, 9E+9, 9E+9, 9E+9]];
PERS jointtarget jt747:= [[-96.6193, -44.3417, 27.0667, -79.9242, 48.9229, -93.791], [104.047, 9E+9, 9E+9, 9E+9, 9E+9, 9E+9]];
PERS jointtarget jt748:= [[-96.2759, -44.3143, 27.2963, -79.972, 48.1976, -93.6472], [103.537, 9E+9, 9E+9, 9E+9, 9E+9, 9E+9]];
PERS jointtarget jt749:= [[-95.1859, -44.2398, 28.0123, -80.1146, 45.8393, -93.2063], [101.886, 9E+9, 9E+9, 9E+9, 9E+9, 9E+9]];
PERS jointtarget jt750:= [[-94.853, -44.2066, 28.1761, -79.9962, 45.0757, -93.4216], [101.334, 9E+9, 9E+9, 9E+9, 9E+9, 9E+9]];
PERS jointtarget jt751:= [[-94.5066, -44.1795, 28.1813, -79.3886, 44.7012, -93.6841], [100.871, 9E+9, 9E+9, 9E+9, 9E+9, 9E+9]];
PERS jointtarget jt752:= [[-94.3624, -44.1823, 28.5445, -79.9904, 45.0437, -92.9697], [100.916, 9E+9, 9E+9, 9E+9, 9E+9, 9E+9]];
PERS jointtarget jt753:= [[-94.4876, -44.1892, 28.4552, -79.8192, 45.4521, -93.1246], [101.125, 9E+9, 9E+9, 9E+9, 9E+9, 9E+9]];
PERS jointtarget jt754:= [[-94.6074, -44.2251, 28.666, -80.5978, 45.2457, -93.069], [101.578, 9E+9, 9E+9, 9E+9, 9E+9, 9E+9]];
PERS jointtarget jt755:= [[-94.2608, -44.2006, 28.9599, -79.8922, 45.271, -93.5787], [101.148, 9E+9, 9E+9, 9E+9, 9E+9, 9E+9]];
PERS jointtarget jt756:= [[-94.2834, -44.2173, 29.1907, -80.5324, 45.7067, -92.8604], [101.358, 9E+9, 9E+9, 9E+9, 9E+9, 9E+9]];
PERS jointtarget jt757:= [[-94.3007, -44.2326, 29.5927, -81.8085, 46.5175, -91.1292], [101.722, 9E+9, 9E+9, 9E+9, 9E+9, 9E+9]];
PERS jointtarget jt758:= [[-93.3032, -44.2017, 29.4537, -78.5557, 46.0565, -91.0121], [101.092, 9E+9, 9E+9, 9E+9, 9E+9, 9E+9]];
PERS jointtarget jt759:= [[-93.604, -44.2668, 29.3046, -77.5604, 47.4264, -90.6917], [102.181, 9E+9, 9E+9, 9E+9, 9E+9, 9E+9]];
PERS jointtarget jt760:= [[-93.4338, -44.306, 30.437, -79.6863, 48.1357, -90.7301], [102.628, 9E+9, 9E+9, 9E+9, 9E+9, 9E+9]];
PERS jointtarget jt761:= [[-93.9829, -44.3251, 29.2866, -77.4726, 49.0767, -89.7879], [103.169, 9E+9, 9E+9, 9E+9, 9E+9, 9E+9]];
PERS jointtarget jt762:= [[-93.5058, -44.2783, 29.8024, -77.9394, 47.9856, -89.0554], [102.391, 9E+9, 9E+9, 9E+9, 9E+9, 9E+9]];
PERS jointtarget jt763:= [[-93.0378, -44.1868, 30.409, -78.9812, 44.6333, -89.1303], [100.724, 9E+9, 9E+9, 9E+9, 9E+9, 9E+9]];
PERS jointtarget jt764:= [[-93.9774, -44.2376, 29.8305, -78.7173, 46.0138, -89.08], [101.819, 9E+9, 9E+9, 9E+9, 9E+9, 9E+9]];
PERS jointtarget jt765:= [[-95.2704, -44.3338, 29.0497, -78.4409, 48.0103, -88.9857], [103.393, 9E+9, 9E+9, 9E+9, 9E+9, 9E+9]];
PERS jointtarget jt766:= [[-95.4827, -44.3588, 28.9985, -78.5851, 48.1751, -89.2328], [103.649, 9E+9, 9E+9, 9E+9, 9E+9, 9E+9]];
PERS jointtarget jt767:= [[-94.2139, -44.2943, 31.4259, -84.0006, 46.1021, -86.2495], [102.223, 9E+9, 9E+9, 9E+9, 9E+9, 9E+9]];
PERS jointtarget jt768:= [[-93.7545, -44.2508, 31.6553, -83.9849, 44.8919, -86.688], [101.534, 9E+9, 9E+9, 9E+9, 9E+9, 9E+9]];
PERS jointtarget jt769:= [[-93.8399, -44.2549, 31.4384, -83.4134, 45.3041, -85.5158], [101.736, 9E+9, 9E+9, 9E+9, 9E+9, 9E+9]];
PERS jointtarget jt770:= [[-92.7505, -44.166, 31.8306, -82.8561, 44.0267, -85.7718], [100.284, 9E+9, 9E+9, 9E+9, 9E+9, 9E+9]];
PERS jointtarget jt771:= [[-92.8762, -44.1698, 31.628, -82.3728, 44.2626, -86.3937], [100.455, 9E+9, 9E+9, 9E+9, 9E+9, 9E+9]];
PERS jointtarget jt772:= [[-92.6371, -44.1621, 31.6494, -82.2021, 43.954, -86.3379], [100.311, 9E+9, 9E+9, 9E+9, 9E+9, 9E+9]];
PERS jointtarget jt773:= [[-92.9863, -44.1939, 31.0651, -80.9111, 45.0272, -87.6026], [100.827, 9E+9, 9E+9, 9E+9, 9E+9, 9E+9]];
PERS jointtarget jt774:= [[-93.7015, -44.2389, 29.59, -77.5603, 45.06, -92.3153], [101.718, 9E+9, 9E+9, 9E+9, 9E+9, 9E+9]];
PERS jointtarget jt775:= [[-93.0964, -44.2669, 31.9499, -83.7882, 46.0717, -85.5469], [101.667, 9E+9, 9E+9, 9E+9, 9E+9, 9E+9]];
PERS jointtarget jt776:= [[-92.407, -44.1966, 32.3785, -83.9114, 45.243, -84.9167], [100.795, 9E+9, 9E+9, 9E+9, 9E+9, 9E+9]];
PERS jointtarget jt777:= [[-91.6547, -44.1407, 32.7862, -83.972, 44.2833, -84.4531], [99.9613, 9E+9, 9E+9, 9E+9, 9E+9, 9E+9]];
PERS jointtarget jt778:= [[-91.4819, -44.1592, 33.8455, -86.836, 44.8057, -81.2944], [100.3, 9E+9, 9E+9, 9E+9, 9E+9, 9E+9]];
PERS jointtarget jt779:= [[-91.0875, -44.1339, 34.2018, -87.463, 44.1367, -80.3819], [99.8372, 9E+9, 9E+9, 9E+9, 9E+9, 9E+9]];
